; generated by PrusaSlicer 2.3.3+win64 on 2022-06-16 at 18:33:30 UTC

; 

; external perimeters extrusion width = 0.60mm
; perimeters extrusion width = 0.50mm
; infill extrusion width = 0.50mm
; solid infill extrusion width = 0.50mm
; top infill extrusion width = 0.45mm
; support material extrusion width = 0.38mm
; first layer extrusion width = 0.42mm

M73 P0 R74
M73 Q0 S75
M201 X1000 Y1000 Z200 E5000 ; sets maximum accelerations, mm/sec^2
M203 X200 Y200 Z12 E120 ; sets maximum feedrates, mm/sec
M204 P1250 R1250 T1250 ; sets acceleration (P, T) and retract acceleration (R), mm/sec^2
M205 X8.00 Y8.00 Z0.40 E4.50 ; sets the jerk limits, mm/sec
M205 S0 T0 ; sets the minimum extruding and travel feed rate, mm/sec
M107
;TYPE:Custom
M862.3 P "MK3S" ; printer model check
M862.1 P0.4 ; nozzle diameter check
M115 U3.11.0 ; tell printer latest fw version
G90 ; use absolute coordinates
M83 ; extruder relative mode
M104 S240 ; set extruder temp
M140 S85 ; set bed temp
M190 S85 ; wait for bed temp
M109 S240 ; wait for extruder temp
G28 W ; home all without mesh bed level
G80 ; mesh bed leveling
G1 Y-3.0 F1000.0 ; go outside print area
G92 E0.0
G1 X60.0 E9.0 F1000.0 ; intro line
G1 X100.0 E12.5 F1000.0 ; intro line
G92 E0.0
M221 S95

; Don't change E values below. Excessive value can damage the printer.

M907 E538 ; set extruder motor current
G21 ; set units to millimeters
G90 ; use absolute coordinates
M83 ; use relative distances for extrusion
M900 K0.08 ; Filament gcode LA 1.5
M900 K45 ; Filament gcode LA 1.0
;LAYER_CHANGE
;Z:0.2
;HEIGHT:0.2
;BEFORE_LAYER_CHANGE
G92 E0.0
;0.2


G1 E-1.00000 F2100.000
G1 Z0.200 F10800.000
;AFTER_LAYER_CHANGE
;0.2
G1 Z0.400
G1 X176.989 Y136.020
G1 Z0.200
G1 E1.00000 F2100.000
M204 S1000
;TYPE:Skirt
;WIDTH:0.42
G1 F1200.000
G1 X176.366 Y136.628 E0.02731
G1 X175.742 Y136.925 E0.02166
G1 X175.055 Y137.029 E0.02178
G1 X92.725 Y137.029 E2.58138
G1 X92.153 Y136.954 E0.01811
G1 X91.615 Y136.744 E0.01811
G1 X91.144 Y136.410 E0.01811
G1 X90.769 Y135.975 E0.01799
G1 X90.432 Y135.204 E0.02637
G1 X78.622 Y85.302 E1.60788
G1 X78.601 Y84.245 E0.03316
G1 X78.755 Y83.309 E0.02971
G1 X79.080 Y82.379 E0.03090
G1 X79.488 Y81.643 E0.02638
G1 X80.275 Y80.687 E0.03885
G1 X81.250 Y79.821 E0.04088
G1 X82.335 Y79.049 E0.04174
G1 X83.635 Y78.327 E0.04662
G1 X85.044 Y77.755 E0.04769
G1 X86.280 Y77.404 E0.04030
G1 X87.543 Y77.186 E0.04018
G1 X89.030 Y77.091 E0.04671
G1 X178.715 Y77.091 E2.81203
M73 P0 R73
G1 X180.249 Y77.187 E0.04818
G1 X181.515 Y77.406 E0.04029
G1 X182.852 Y77.790 E0.04362
G1 X184.271 Y78.387 E0.04827
G1 X185.391 Y79.009 E0.04016
G1 X186.494 Y79.786 E0.04231
G1 X187.694 Y80.871 E0.05070
G1 X188.213 Y81.507 E0.02575
G1 X188.648 Y82.252 E0.02706
G1 X189.055 Y83.403 E0.03826
G1 X189.185 Y84.203 E0.02543
G1 X189.191 Y85.048 E0.02650
G1 X189.033 Y86.044 E0.03162
G1 X177.351 Y135.227 E1.58501
G1 X177.014 Y135.965 E0.02543
; printing object Body1 id:0 copy 0
;WIPE_START
G1 F8640.000
G1 X176.366 Y136.628 E-0.21413
G1 X175.742 Y136.925 E-0.15950
G1 X175.055 Y137.029 E-0.16037
G1 X173.253 Y137.029 E-0.41599
;WIPE_END
G1 E-0.05000 F2100.000
G1 Z0.400 F10800.000
G1 X164.061 Y95.394
G1 Z0.200
G1 E1.00000 F2100.000
;TYPE:Support material
G1 F1200.000
G1 X164.061 Y94.059 E0.04184
G1 X163.307 Y93.305 E0.03344
G1 X163.307 Y95.224 E0.06016
G1 X162.553 Y95.224 E0.02365
G1 X162.553 Y92.551 E0.08381
G1 X161.798 Y91.797 E0.03344
G1 X161.798 Y95.224 E0.10746
G1 X161.044 Y95.224 E0.02365
G1 X161.044 Y91.043 E0.13110
G1 X160.842 Y90.841 E0.00896
G1 X160.290 Y90.841 E0.01731
G1 X160.290 Y95.224 E0.13744
G1 X159.536 Y95.224 E0.02365
G1 X159.536 Y90.841 E0.13744
M73 Q0 S74
G1 X158.782 Y90.841 E0.02365
G1 X158.782 Y95.224 E0.13744
G1 X158.028 Y95.224 E0.02365
G1 X158.028 Y90.841 E0.13744
G1 X157.273 Y90.841 E0.02365
G1 X157.273 Y95.224 E0.13744
G1 X156.519 Y95.224 E0.02365
G1 X156.519 Y90.841 E0.13744
G1 X155.765 Y90.841 E0.02365
G1 X155.765 Y95.224 E0.13744
G1 X155.011 Y95.224 E0.02365
G1 X155.011 Y90.841 E0.13744
G1 X154.257 Y90.841 E0.02365
G1 X154.257 Y95.224 E0.13744
G1 X153.503 Y95.224 E0.02365
G1 X153.503 Y90.841 E0.13744
G1 X152.749 Y90.841 E0.02365
G1 X152.749 Y95.224 E0.13744
G1 X151.994 Y95.224 E0.02365
G1 X151.994 Y90.841 E0.13744
G1 X151.240 Y90.841 E0.02365
G1 X151.240 Y95.224 E0.13744
G1 X150.486 Y95.224 E0.02365
G1 X150.486 Y90.841 E0.13744
G1 X149.732 Y90.841 E0.02365
G1 X149.732 Y95.224 E0.13744
G1 X148.978 Y95.224 E0.02365
G1 X148.978 Y90.841 E0.13744
G1 X148.224 Y90.841 E0.02365
G1 X148.224 Y95.224 E0.13744
G1 X147.469 Y95.224 E0.02365
G1 X147.469 Y90.841 E0.13744
G1 X146.715 Y90.841 E0.02365
G1 X146.715 Y95.224 E0.13744
G1 X145.961 Y95.224 E0.02365
G1 X145.961 Y90.841 E0.13744
G1 X145.207 Y90.841 E0.02365
G1 X145.207 Y95.224 E0.13744
G1 X144.453 Y95.224 E0.02365
G1 X144.453 Y90.841 E0.13744
G1 X143.699 Y90.841 E0.02365
G1 X143.699 Y95.224 E0.13744
G1 X142.944 Y95.224 E0.02365
G1 X142.944 Y90.841 E0.13744
G1 X142.190 Y90.841 E0.02365
G1 X142.190 Y95.224 E0.13744
G1 X141.436 Y95.224 E0.02365
G1 X141.436 Y90.841 E0.13744
G1 X140.682 Y90.841 E0.02365
G1 X140.682 Y95.224 E0.13744
G1 X139.928 Y95.224 E0.02365
G1 X139.928 Y90.841 E0.13744
G1 X139.174 Y90.841 E0.02365
G1 X139.174 Y95.224 E0.13744
G1 X138.419 Y95.224 E0.02365
G1 X138.419 Y90.841 E0.13744
G1 X137.665 Y90.841 E0.02365
G1 X137.665 Y95.224 E0.13744
G1 X136.911 Y95.224 E0.02365
G1 X136.911 Y90.841 E0.13744
G1 X136.157 Y90.841 E0.02365
G1 X136.157 Y95.224 E0.13744
G1 X135.403 Y95.224 E0.02365
G1 X135.403 Y90.841 E0.13744
G1 X134.649 Y90.841 E0.02365
G1 X134.649 Y95.224 E0.13744
G1 X133.895 Y95.224 E0.02365
G1 X133.895 Y90.841 E0.13744
G1 X133.140 Y90.841 E0.02365
G1 X133.140 Y95.224 E0.13744
G1 X132.386 Y95.224 E0.02365
G1 X132.386 Y90.841 E0.13744
G1 X131.632 Y90.841 E0.02365
G1 X131.632 Y95.224 E0.13744
G1 X130.878 Y95.224 E0.02365
G1 X130.878 Y90.841 E0.13744
G1 X130.124 Y90.841 E0.02365
G1 X130.124 Y95.224 E0.13744
G1 X129.370 Y95.224 E0.02365
G1 X129.370 Y90.841 E0.13744
G1 X128.615 Y90.841 E0.02365
G1 X128.615 Y95.224 E0.13744
G1 X127.861 Y95.224 E0.02365
G1 X127.861 Y90.841 E0.13744
G1 X127.107 Y90.841 E0.02365
G1 X127.107 Y95.224 E0.13744
G1 X126.353 Y95.224 E0.02365
G1 X126.353 Y90.841 E0.13744
G1 X125.599 Y90.841 E0.02365
G1 X125.599 Y95.224 E0.13744
G1 X124.845 Y95.224 E0.02365
G1 X124.845 Y90.841 E0.13744
G1 X124.090 Y90.841 E0.02365
G1 X124.090 Y95.224 E0.13744
G1 X123.336 Y95.224 E0.02365
G1 X123.336 Y90.841 E0.13744
G1 X122.582 Y90.841 E0.02365
G1 X122.582 Y95.224 E0.13744
G1 X121.828 Y95.224 E0.02365
G1 X121.828 Y90.841 E0.13744
G1 X121.074 Y90.841 E0.02365
G1 X121.074 Y95.224 E0.13744
G1 X120.320 Y95.224 E0.02365
G1 X120.320 Y90.841 E0.13744
G1 X119.566 Y90.841 E0.02365
G1 X119.566 Y95.224 E0.13744
G1 X118.811 Y95.224 E0.02365
G1 X118.811 Y90.841 E0.13744
G1 X118.057 Y90.841 E0.02365
G1 X118.057 Y95.224 E0.13744
G1 X117.303 Y95.224 E0.02365
G1 X117.303 Y90.841 E0.13744
G1 X116.549 Y90.841 E0.02365
G1 X116.549 Y95.224 E0.13744
G1 X115.795 Y95.224 E0.02365
G1 X115.795 Y90.841 E0.13744
G1 X115.041 Y90.841 E0.02365
G1 X115.041 Y95.224 E0.13744
G1 X114.286 Y95.224 E0.02365
G1 X114.286 Y90.841 E0.13744
G1 X113.532 Y90.841 E0.02365
G1 X113.532 Y95.224 E0.13744
G1 X112.778 Y95.224 E0.02365
G1 X112.778 Y90.841 E0.13744
G1 X112.024 Y90.841 E0.02365
G1 X112.024 Y95.224 E0.13744
G1 X111.270 Y95.224 E0.02365
G1 X111.270 Y90.841 E0.13744
G1 X110.516 Y90.841 E0.02365
G1 X110.516 Y95.224 E0.13744
G1 X109.761 Y95.224 E0.02365
G1 X109.761 Y90.841 E0.13744
G1 X109.007 Y90.841 E0.02365
G1 X109.007 Y95.224 E0.13744
G1 X108.253 Y95.224 E0.02365
G1 X108.253 Y90.841 E0.13744
G1 X107.499 Y90.841 E0.02365
G1 X107.499 Y95.224 E0.13744
G1 X106.745 Y95.224 E0.02365
G1 X106.745 Y91.043 E0.13110
G1 X105.991 Y91.797 E0.03344
G1 X105.991 Y95.224 E0.10746
M73 P1 R73
M73 Q1 S74
G1 X105.236 Y95.224 E0.02365
G1 X105.236 Y92.551 E0.08381
G1 X104.482 Y93.305 E0.03344
G1 X104.482 Y95.224 E0.06016
G1 X103.728 Y95.224 E0.02365
G1 X103.728 Y93.819 E0.04404
;WIPE_START
G1 F8640.000
G1 X103.728 Y95.224 E-0.32433
G1 X104.482 Y95.224 E-0.17414
G1 X104.482 Y93.305 E-0.44306
G1 X104.508 Y93.279 E-0.00847
;WIPE_END
G1 E-0.05000 F2100.000
G1 Z0.400 F10800.000
G1 X103.728 Y84.485
G1 Z0.200
G1 E1.00000 F2100.000
G1 F1200.000
G1 X103.728 Y87.864 E0.10594
G1 X104.482 Y87.864 E0.02365
G1 X104.482 Y84.654 E0.10062
G1 X105.236 Y84.654 E0.02365
G1 X105.236 Y87.864 E0.10062
G1 X105.991 Y87.864 E0.02365
G1 X105.991 Y84.654 E0.10062
G1 X106.745 Y84.654 E0.02365
G1 X106.745 Y87.864 E0.10062
G1 X107.499 Y87.864 E0.02365
G1 X107.499 Y84.654 E0.10062
G1 X108.253 Y84.654 E0.02365
G1 X108.253 Y87.864 E0.10062
G1 X109.007 Y87.864 E0.02365
G1 X109.007 Y84.654 E0.10062
G1 X109.761 Y84.654 E0.02365
G1 X109.761 Y87.864 E0.10062
G1 X110.516 Y87.864 E0.02365
G1 X110.516 Y84.654 E0.10062
G1 X111.270 Y84.654 E0.02365
G1 X111.270 Y87.864 E0.10062
G1 X112.024 Y87.864 E0.02365
G1 X112.024 Y84.654 E0.10062
G1 X112.778 Y84.654 E0.02365
G1 X112.778 Y87.864 E0.10062
G1 X113.532 Y87.864 E0.02365
G1 X113.532 Y84.654 E0.10062
G1 X114.286 Y84.654 E0.02365
G1 X114.286 Y87.864 E0.10062
G1 X115.041 Y87.864 E0.02365
G1 X115.041 Y84.654 E0.10062
G1 X115.795 Y84.654 E0.02365
G1 X115.795 Y87.864 E0.10062
G1 X116.549 Y87.864 E0.02365
G1 X116.549 Y84.654 E0.10062
G1 X117.303 Y84.654 E0.02365
G1 X117.303 Y87.864 E0.10062
G1 X118.057 Y87.864 E0.02365
G1 X118.057 Y84.654 E0.10062
G1 X118.811 Y84.654 E0.02365
G1 X118.811 Y87.864 E0.10062
G1 X119.566 Y87.864 E0.02365
G1 X119.566 Y84.654 E0.10062
G1 X120.320 Y84.654 E0.02365
G1 X120.320 Y87.864 E0.10062
G1 X121.074 Y87.864 E0.02365
G1 X121.074 Y84.654 E0.10062
G1 X121.828 Y84.654 E0.02365
G1 X121.828 Y87.864 E0.10062
G1 X122.582 Y87.864 E0.02365
G1 X122.582 Y84.654 E0.10062
G1 X123.336 Y84.654 E0.02365
G1 X123.336 Y87.864 E0.10062
G1 X124.090 Y87.864 E0.02365
G1 X124.090 Y84.654 E0.10062
G1 X124.845 Y84.654 E0.02365
G1 X124.845 Y87.864 E0.10062
G1 X125.599 Y87.864 E0.02365
G1 X125.599 Y84.654 E0.10062
G1 X126.353 Y84.654 E0.02365
G1 X126.353 Y87.864 E0.10062
G1 X127.107 Y87.864 E0.02365
G1 X127.107 Y84.654 E0.10062
G1 X127.861 Y84.654 E0.02365
G1 X127.861 Y87.864 E0.10062
G1 X128.615 Y87.864 E0.02365
G1 X128.615 Y84.654 E0.10062
G1 X129.370 Y84.654 E0.02365
G1 X129.370 Y87.864 E0.10062
G1 X130.124 Y87.864 E0.02365
G1 X130.124 Y84.654 E0.10062
G1 X130.878 Y84.654 E0.02365
G1 X130.878 Y87.864 E0.10062
G1 X131.632 Y87.864 E0.02365
G1 X131.632 Y84.654 E0.10062
G1 X132.386 Y84.654 E0.02365
G1 X132.386 Y87.864 E0.10062
G1 X133.140 Y87.864 E0.02365
G1 X133.140 Y84.654 E0.10062
G1 X133.895 Y84.654 E0.02365
G1 X133.895 Y87.864 E0.10062
G1 X134.649 Y87.864 E0.02365
G1 X134.649 Y84.654 E0.10062
G1 X135.403 Y84.654 E0.02365
G1 X135.403 Y87.864 E0.10062
G1 X136.157 Y87.864 E0.02365
G1 X136.157 Y84.654 E0.10062
G1 X136.911 Y84.654 E0.02365
G1 X136.911 Y87.864 E0.10062
G1 X137.665 Y87.864 E0.02365
G1 X137.665 Y84.654 E0.10062
G1 X138.419 Y84.654 E0.02365
G1 X138.419 Y87.864 E0.10062
G1 X139.174 Y87.864 E0.02365
G1 X139.174 Y84.654 E0.10062
G1 X139.928 Y84.654 E0.02365
G1 X139.928 Y87.864 E0.10062
G1 X140.682 Y87.864 E0.02365
G1 X140.682 Y84.654 E0.10062
G1 X141.436 Y84.654 E0.02365
G1 X141.436 Y87.864 E0.10062
G1 X142.190 Y87.864 E0.02365
G1 X142.190 Y84.654 E0.10062
G1 X142.944 Y84.654 E0.02365
G1 X142.944 Y87.864 E0.10062
G1 X143.699 Y87.864 E0.02365
G1 X143.699 Y84.654 E0.10062
G1 X144.453 Y84.654 E0.02365
G1 X144.453 Y87.864 E0.10062
G1 X145.207 Y87.864 E0.02365
G1 X145.207 Y84.654 E0.10062
G1 X145.961 Y84.654 E0.02365
G1 X145.961 Y87.864 E0.10062
G1 X146.715 Y87.864 E0.02365
G1 X146.715 Y84.654 E0.10062
G1 X147.469 Y84.654 E0.02365
G1 X147.469 Y87.864 E0.10062
G1 X148.224 Y87.864 E0.02365
G1 X148.224 Y84.654 E0.10062
G1 X148.978 Y84.654 E0.02365
G1 X148.978 Y87.864 E0.10062
G1 X149.732 Y87.864 E0.02365
G1 X149.732 Y84.654 E0.10062
G1 X150.486 Y84.654 E0.02365
G1 X150.486 Y87.864 E0.10062
G1 X151.240 Y87.864 E0.02365
G1 X151.240 Y84.654 E0.10062
G1 X151.994 Y84.654 E0.02365
G1 X151.994 Y87.864 E0.10062
G1 X152.749 Y87.864 E0.02365
G1 X152.749 Y84.654 E0.10062
G1 X153.503 Y84.654 E0.02365
G1 X153.503 Y87.864 E0.10062
G1 X154.257 Y87.864 E0.02365
G1 X154.257 Y84.654 E0.10062
G1 X155.011 Y84.654 E0.02365
G1 X155.011 Y87.864 E0.10062
G1 X155.765 Y87.864 E0.02365
G1 X155.765 Y84.654 E0.10062
G1 X156.519 Y84.654 E0.02365
G1 X156.519 Y87.864 E0.10062
G1 X157.273 Y87.864 E0.02365
G1 X157.273 Y84.654 E0.10062
G1 X158.028 Y84.654 E0.02365
G1 X158.028 Y87.864 E0.10062
G1 X158.782 Y87.864 E0.02365
G1 X158.782 Y84.654 E0.10062
G1 X159.536 Y84.654 E0.02365
G1 X159.536 Y87.864 E0.10062
G1 X160.290 Y87.864 E0.02365
G1 X160.290 Y84.654 E0.10062
G1 X161.044 Y84.654 E0.02365
G1 X161.044 Y87.864 E0.10062
G1 X161.798 Y87.864 E0.02365
G1 X161.798 Y84.654 E0.10062
G1 X162.553 Y84.654 E0.02365
G1 X162.553 Y87.864 E0.10062
G1 X163.307 Y87.864 E0.02365
G1 X163.307 Y84.654 E0.10062
G1 X164.061 Y84.654 E0.02365
G1 X164.061 Y88.033 E0.10594
;WIPE_START
G1 F8640.000
G1 X164.061 Y84.654 E-0.78019
G1 X163.325 Y84.654 E-0.16981
;WIPE_END
G1 E-0.05000 F2100.000
G1 Z0.400 F10800.000
G1 X174.257 Y95.581
G1 Z0.200
G1 E1.00000 F2100.000
;TYPE:Perimeter
G1 F1200.000
G1 X174.257 Y133.865 E1.20038
G1 X173.832 Y133.865 E0.01335
G1 X173.832 Y102.026 E0.99829
G1 X161.371 Y89.565 E0.55254
G1 X106.419 Y89.565 E1.72298
G1 X93.957 Y102.026 E0.55254
G1 X93.957 Y133.865 E0.99829
G1 X93.532 Y133.865 E0.01335
G1 X93.532 Y95.581 E1.20038
G1 X83.406 Y85.455 E0.44899
G1 X83.264 Y85.287 E0.00690
G1 X83.172 Y85.126 E0.00582
G1 X83.108 Y84.951 E0.00582
G1 X83.076 Y84.769 E0.00582
G1 X83.075 Y84.583 E0.00582
G1 X83.107 Y84.400 E0.00582
G1 X83.170 Y84.226 E0.00582
G1 X83.263 Y84.064 E0.00583
G1 X83.382 Y83.922 E0.00579
G1 X84.041 Y83.334 E0.02771
G1 X84.778 Y82.811 E0.02835
G1 X85.570 Y82.374 E0.02836
G1 X86.406 Y82.028 E0.02836
G1 X87.275 Y81.778 E0.02836
G1 X88.166 Y81.627 E0.02835
G1 X89.076 Y81.577 E0.02858
G1 X89.972 Y81.628 E0.02814
G1 X90.864 Y81.780 E0.02836
G1 X91.733 Y82.030 E0.02836
G1 X92.569 Y82.376 E0.02836
G1 X93.278 Y82.768 E0.02540
G1 X94.100 Y83.339 E0.03139
G1 X94.789 Y83.955 E0.02897
G1 X99.983 Y89.139 E0.23010
M73 P1 R72
G1 X167.806 Y89.139 E2.12654
G1 X173.000 Y83.955 E0.23010
G1 X173.691 Y83.338 E0.02905
G1 X174.428 Y82.814 E0.02834
G1 X175.219 Y82.377 E0.02834
G1 X176.054 Y82.031 E0.02834
G1 X176.923 Y81.780 E0.02834
G1 X177.814 Y81.628 E0.02834
G1 X178.713 Y81.577 E0.02823
G1 X179.619 Y81.627 E0.02845
G1 X180.510 Y81.777 E0.02834
G1 X181.379 Y82.027 E0.02834
G1 X182.214 Y82.372 E0.02834
G1 X183.006 Y82.808 E0.02834
G1 X183.744 Y83.330 E0.02834
G1 X184.403 Y83.918 E0.02770
G1 X184.526 Y84.065 E0.00600
G1 X184.618 Y84.225 E0.00581
G1 X184.682 Y84.400 E0.00582
G1 X184.714 Y84.583 E0.00582
G1 X184.714 Y84.768 E0.00582
G1 X184.681 Y84.951 E0.00582
G1 X184.618 Y85.126 E0.00582
G1 X184.525 Y85.286 E0.00582
G1 X184.383 Y85.455 E0.00690
G1 X174.300 Y95.538 E0.44711
G1 X174.635 Y95.737 F10800.000
;TYPE:External perimeter
G1 F1200.000
G1 X174.635 Y134.242 E1.20730
G1 X173.455 Y134.242 E0.03700
G1 X173.455 Y102.182 E1.00521
M73 Q1 S73
G1 X161.214 Y89.942 E0.54275
G1 X106.575 Y89.942 E1.71319
M73 P2 R72
G1 X94.335 Y102.182 E0.54275
M73 Q2 S73
G1 X94.335 Y134.242 E1.00521
G1 X93.155 Y134.242 E0.03700
G1 X93.155 Y95.737 E1.20730
G1 X83.128 Y85.710 E0.44461
G1 X82.954 Y85.504 E0.00845
G1 X82.829 Y85.286 E0.00789
G1 X82.742 Y85.050 E0.00789
G1 X82.698 Y84.802 E0.00789
G1 X82.698 Y84.550 E0.00789
G1 X82.741 Y84.303 E0.00789
G1 X82.827 Y84.066 E0.00789
G1 X82.953 Y83.848 E0.00789
G1 X83.110 Y83.660 E0.00769
G1 X83.805 Y83.038 E0.02924
G1 X84.578 Y82.491 E0.02968
G1 X85.406 Y82.034 E0.02968
G1 X86.281 Y81.672 E0.02968
G1 X87.191 Y81.410 E0.02968
G1 X88.124 Y81.252 E0.02968
G1 X89.077 Y81.199 E0.02991
G1 X90.015 Y81.252 E0.02946
G1 X90.948 Y81.411 E0.02969
G1 X91.858 Y81.674 E0.02968
G1 X92.733 Y82.036 E0.02968
G1 X93.477 Y82.448 E0.02666
G1 X94.334 Y83.043 E0.03272
G1 X95.048 Y83.681 E0.03002
G1 X100.139 Y88.762 E0.22554
G1 X167.650 Y88.762 E2.11676
G1 X172.741 Y83.681 E0.22554
G1 X173.456 Y83.042 E0.03004
G1 X174.227 Y82.495 E0.02967
