; generated by PrusaSlicer 2.3.3+win64 on 2022-06-09 at 21:05:14 UTC

; 

; external perimeters extrusion width = 0.60mm
; perimeters extrusion width = 0.50mm
; infill extrusion width = 0.50mm
; solid infill extrusion width = 0.50mm
; top infill extrusion width = 0.45mm
; first layer extrusion width = 0.42mm

M73 P0 R48
M73 Q0 S48
M201 X1000 Y1000 Z200 E5000 ; sets maximum accelerations, mm/sec^2
M203 X200 Y200 Z12 E120 ; sets maximum feedrates, mm/sec
M204 P1250 R1250 T1250 ; sets acceleration (P, T) and retract acceleration (R), mm/sec^2
M205 X8.00 Y8.00 Z0.40 E4.50 ; sets the jerk limits, mm/sec
M205 S0 T0 ; sets the minimum extruding and travel feed rate, mm/sec
M107
;TYPE:Custom
M862.3 P "MK3S" ; printer model check
M862.1 P0.4 ; nozzle diameter check
M115 U3.11.0 ; tell printer latest fw version
G90 ; use absolute coordinates
M83 ; extruder relative mode
M104 S215 ; set extruder temp
M140 S60 ; set bed temp
M190 S60 ; wait for bed temp
M109 S215 ; wait for extruder temp
G28 W ; home all without mesh bed level
G80 ; mesh bed leveling
G1 Y-3.0 F1000.0 ; go outside print area
G92 E0.0
G1 X60.0 E9.0 F1000.0 ; intro line
G1 X100.0 E12.5 F1000.0 ; intro line
G92 E0.0
M221 S95

; Don't change E values below. Excessive value can damage the printer.

M907 E538 ; set extruder motor current
G21 ; set units to millimeters
G90 ; use absolute coordinates
M83 ; use relative distances for extrusion
M900 K0.05 ; Filament gcode LA 1.5
M900 K30 ; Filament gcode LA 1.0
;LAYER_CHANGE
;Z:0.2
;HEIGHT:0.2
;BEFORE_LAYER_CHANGE
G92 E0.0
;0.2


G1 E-0.80000 F2100.000
G1 Z0.400 F10800.000
;AFTER_LAYER_CHANGE
;0.2
G1 X72.865 Y53.709
G1 Z0.200
G1 E0.80000 F2100.000
M204 S1000
;TYPE:Skirt
;WIDTH:0.42
G1 F1200.000
G1 X73.617 Y52.969 E0.03307
G1 X74.405 Y52.551 E0.02799
G1 X75.379 Y52.348 E0.03118
G1 X98.482 Y52.340 E0.72437
M73 P0 R47
G1 X173.952 Y53.096 E2.36645
G1 X174.593 Y53.168 E0.02022
G1 X175.238 Y53.373 E0.02123
G1 X175.817 Y53.694 E0.02076
G1 X176.351 Y54.153 E0.02206
G1 X176.810 Y54.768 E0.02407
G1 X177.163 Y55.620 E0.02893
G1 X188.032 Y94.506 E1.26596
G1 X188.228 Y95.454 E0.03035
G1 X188.281 Y96.267 E0.02555
G1 X188.279 Y142.664 E1.45476
G1 X188.217 Y143.471 E0.02536
G1 X188.061 Y144.220 E0.02400
G1 X187.703 Y145.223 E0.03340
G1 X187.179 Y146.147 E0.03328
G1 X186.715 Y146.755 E0.02399
G1 X186.136 Y147.339 E0.02579
G1 X185.344 Y147.939 E0.03115
G1 X184.440 Y148.418 E0.03210
G1 X167.585 Y154.796 E0.56504
G1 X166.924 Y154.940 E0.02119
G1 X83.838 Y154.631 E2.60515
G1 X83.032 Y154.484 E0.02567
G1 X66.142 Y148.092 E0.56624
G1 X65.143 Y147.540 E0.03578
G1 X64.522 Y147.067 E0.02447
G1 X63.935 Y146.486 E0.02591
G1 X63.333 Y145.691 E0.03127
G1 X62.849 Y144.772 E0.03257
G1 X62.420 Y143.317 E0.04754
G1 X62.329 Y142.325 E0.03126
G1 X62.379 Y95.166 E1.47863
G1 X72.423 Y54.514 E1.31292
G1 X72.836 Y53.761 E0.02693
; printing object Body1 id:1 copy 0
;WIPE_START
G1 F8640.000
G1 X73.617 Y52.969 E-0.25686
G1 X74.405 Y52.551 E-0.20611
G1 X75.379 Y52.348 E-0.22962
G1 X75.671 Y52.348 E-0.06742
;WIPE_END
G1 E-0.04000 F2100.000
G1 Z0.600 F10800.000
G1 X67.541 Y119.940
M73 P1 R47
M73 Q1 S48
G1 Z0.200
G1 E0.80000 F2100.000
;TYPE:Perimeter
G1 F1200.000
G1 X97.019 Y119.940 E0.92427
M73 Q1 S47
G1 X97.019 Y124.268 E0.13571
G1 X67.541 Y124.268 E0.92427
G1 X67.541 Y120.000 E0.13383
G1 X67.918 Y120.317 F10800.000
G1 F1200.000
G1 X96.642 Y120.317 E0.90063
G1 X96.642 Y123.891 E0.11207
G1 X67.918 Y123.891 E0.90063
G1 X67.918 Y120.377 E0.11018
G1 X68.295 Y120.694 F10800.000
;TYPE:External perimeter
G1 F1200.000
G1 X96.265 Y120.694 E0.87698
G1 X96.265 Y123.514 E0.08842
G1 X68.295 Y123.514 E0.87698
G1 X68.295 Y120.754 E0.08654
G1 X68.107 Y120.341 F10800.000
;WIPE_START
G1 F8640.000
G1 X71.586 Y120.747 E-0.76000
;WIPE_END
G1 E-0.04000 F2100.000
G1 Z0.600 F10800.000
G1 X67.541 Y125.940
G1 Z0.200
G1 E0.80000 F2100.000
;TYPE:Perimeter
G1 F1200.000
G1 X97.019 Y125.940 E0.92427
G1 X97.019 Y130.268 E0.13571
G1 X67.541 Y130.268 E0.92427
G1 X67.541 Y126.000 E0.13383
G1 X67.918 Y126.317 F10800.000
G1 F1200.000
G1 X96.642 Y126.317 E0.90063
G1 X96.642 Y129.891 E0.11207
G1 X67.918 Y129.891 E0.90063
G1 X67.918 Y126.377 E0.11018
G1 X68.295 Y126.694 F10800.000
;TYPE:External perimeter
G1 F1200.000
G1 X96.265 Y126.694 E0.87698
G1 X96.265 Y129.514 E0.08842
G1 X68.295 Y129.514 E0.87698
G1 X68.295 Y126.754 E0.08654
G1 X68.107 Y126.341 F10800.000
;WIPE_START
G1 F8640.000
G1 X71.586 Y126.747 E-0.76000
;WIPE_END
G1 E-0.04000 F2100.000
G1 Z0.600 F10800.000
G1 X67.541 Y131.940
G1 Z0.200
G1 E0.80000 F2100.000
;TYPE:Perimeter
G1 F1200.000
G1 X97.019 Y131.940 E0.92427
G1 X97.019 Y136.268 E0.13571
G1 X67.541 Y136.268 E0.92427
G1 X67.541 Y132.000 E0.13383
G1 X67.918 Y132.317 F10800.000
G1 F1200.000
G1 X96.642 Y132.317 E0.90063
G1 X96.642 Y135.891 E0.11207
G1 X67.918 Y135.891 E0.90063
G1 X67.918 Y132.377 E0.11018
G1 X68.295 Y132.694 F10800.000
;TYPE:External perimeter
G1 F1200.000
G1 X96.265 Y132.694 E0.87698
M73 P2 R47
M73 Q2 S47
G1 X96.265 Y135.514 E0.08842
G1 X68.295 Y135.514 E0.87698
G1 X68.295 Y132.754 E0.08654
G1 X68.107 Y132.341 F10800.000
;WIPE_START
G1 F8640.000
G1 X71.586 Y132.747 E-0.76000
;WIPE_END
G1 E-0.04000 F2100.000
G1 Z0.600 F10800.000
G1 X67.541 Y137.940
G1 Z0.200
G1 E0.80000 F2100.000
;TYPE:Perimeter
G1 F1200.000
G1 X97.019 Y137.940 E0.92427
G1 X97.019 Y142.268 E0.13571
G1 X67.541 Y142.268 E0.92427
G1 X67.541 Y138.000 E0.13383
G1 X67.918 Y138.317 F10800.000
G1 F1200.000
G1 X96.642 Y138.317 E0.90063
G1 X96.642 Y141.891 E0.11207
G1 X67.918 Y141.891 E0.90063
G1 X67.918 Y138.377 E0.11018
G1 X68.295 Y138.694 F10800.000
;TYPE:External perimeter
G1 F1200.000
G1 X96.265 Y138.694 E0.87698
G1 X96.265 Y141.514 E0.08842
G1 X68.295 Y141.514 E0.87698
M73 P2 R46
G1 X68.295 Y138.754 E0.08654
G1 X68.107 Y138.341 F10800.000
;WIPE_START
G1 F8640.000
G1 X71.586 Y138.747 E-0.76000
;WIPE_END
G1 E-0.04000 F2100.000
G1 Z0.600 F10800.000
G1 X67.541 Y113.940
G1 Z0.200
G1 E0.80000 F2100.000
;TYPE:Perimeter
G1 F1200.000
G1 X97.019 Y113.940 E0.92427
G1 X97.019 Y118.268 E0.13571
G1 X67.541 Y118.268 E0.92427
G1 X67.541 Y114.000 E0.13383
G1 X67.918 Y114.317 F10800.000
G1 F1200.000
G1 X96.642 Y114.317 E0.90063
G1 X96.642 Y117.891 E0.11207
G1 X67.918 Y117.891 E0.90063
G1 X67.918 Y114.377 E0.11018
G1 X68.295 Y114.694 F10800.000
;TYPE:External perimeter
G1 F1200.000
G1 X96.265 Y114.694 E0.87698
G1 X96.265 Y117.514 E0.08842
G1 X68.295 Y117.514 E0.87698
G1 X68.295 Y114.754 E0.08654
G1 X68.107 Y114.341 F10800.000
;WIPE_START
G1 F8640.000
G1 X71.586 Y114.747 E-0.76000
;WIPE_END
G1 E-0.04000 F2100.000
G1 Z0.600 F10800.000
G1 X67.541 Y107.940
G1 Z0.200
G1 E0.80000 F2100.000
;TYPE:Perimeter
G1 F1200.000
G1 X97.019 Y107.940 E0.92427
G1 X97.019 Y112.268 E0.13571
G1 X67.541 Y112.268 E0.92427
G1 X67.541 Y108.000 E0.13383
G1 X67.918 Y108.317 F10800.000
G1 F1200.000
G1 X96.642 Y108.317 E0.90063
G1 X96.642 Y111.891 E0.11207
G1 X67.918 Y111.891 E0.90063
M73 P3 R46
M73 Q3 S47
G1 X67.918 Y108.377 E0.11018
G1 X68.295 Y108.694 F10800.000
;TYPE:External perimeter
G1 F1200.000
G1 X96.265 Y108.694 E0.87698
G1 X96.265 Y111.514 E0.08842
G1 X68.295 Y111.514 E0.87698
M73 Q3 S46
G1 X68.295 Y108.754 E0.08654
G1 X68.107 Y108.341 F10800.000
;WIPE_START
G1 F8640.000
G1 X71.586 Y108.747 E-0.76000
;WIPE_END
G1 E-0.04000 F2100.000
G1 Z0.600 F10800.000
G1 X67.541 Y101.940
G1 Z0.200
G1 E0.80000 F2100.000
;TYPE:Perimeter
G1 F1200.000
G1 X97.019 Y101.940 E0.92427
G1 X97.019 Y106.268 E0.13571
G1 X67.541 Y106.268 E0.92427
G1 X67.541 Y102.000 E0.13383
G1 X67.918 Y102.317 F10800.000
G1 F1200.000
G1 X96.642 Y102.317 E0.90063
G1 X96.642 Y105.891 E0.11207
G1 X67.918 Y105.891 E0.90063
G1 X67.918 Y102.377 E0.11018
G1 X68.295 Y102.694 F10800.000
;TYPE:External perimeter
G1 F1200.000
G1 X96.265 Y102.694 E0.87698
G1 X96.265 Y105.514 E0.08842
G1 X68.295 Y105.514 E0.87698
G1 X68.295 Y102.754 E0.08654
G1 X68.107 Y102.341 F10800.000
;WIPE_START
G1 F8640.000
G1 X71.586 Y102.747 E-0.76000
;WIPE_END
G1 E-0.04000 F2100.000
G1 Z0.600 F10800.000
G1 X67.541 Y95.940
G1 Z0.200
G1 E0.80000 F2100.000
;TYPE:Perimeter
G1 F1200.000
G1 X97.019 Y95.940 E0.92427
G1 X97.019 Y100.268 E0.13571
G1 X67.541 Y100.268 E0.92427
G1 X67.541 Y96.000 E0.13383
G1 X67.918 Y96.317 F10800.000
G1 F1200.000
G1 X96.642 Y96.317 E0.90063
G1 X96.642 Y99.891 E0.11207
G1 X67.918 Y99.891 E0.90063
G1 X67.918 Y96.377 E0.11018
G1 X68.295 Y96.694 F10800.000
;TYPE:External perimeter
G1 F1200.000
G1 X96.265 Y96.694 E0.87698
G1 X96.265 Y99.514 E0.08842
G1 X68.295 Y99.514 E0.87698
G1 X68.295 Y96.754 E0.08654
G1 X68.107 Y96.341 F10800.000
;WIPE_START
G1 F8640.000
G1 X71.586 Y96.747 E-0.76000
;WIPE_END
G1 E-0.04000 F2100.000
G1 Z0.600 F10800.000
G1 X88.691 Y93.118
G1 Z0.200
G1 E0.80000 F2100.000
;TYPE:Perimeter
G1 F1200.000
G1 X98.691 Y93.118 E0.31354
G1 X98.691 Y113.622 E0.64288
G1 X97.691 Y114.622 E0.04434
G1 X97.691 Y123.586 E0.28107
G1 X98.691 Y124.586 E0.04434
G1 X98.691 Y145.090 E0.64288
M73 P4 R46
G1 X88.691 Y145.090 E0.31354
M73 Q4 S46
G1 X88.691 Y147.441 E0.07374
G1 X88.382 Y147.152 E0.01327
G1 X87.811 Y146.838 E0.02042
G1 X87.181 Y146.676 E0.02042
G1 X86.529 Y146.676 E0.02042
G1 X85.898 Y146.838 E0.02042
G1 X85.328 Y147.152 E0.02042
G1 X85.019 Y147.441 E0.01327
G1 X85.019 Y145.090 E0.07374
G1 X68.746 Y145.090 E0.51022
G1 X68.302 Y145.058 E0.01398
G1 X67.907 Y144.972 E0.01267
G1 X67.528 Y144.831 E0.01267
G1 X67.173 Y144.637 E0.01267
G1 X66.850 Y144.395 E0.01267
G1 X66.564 Y144.109 E0.01267
G1 X66.322 Y143.785 E0.01267
G1 X66.128 Y143.431 E0.01267
G1 X65.987 Y143.052 E0.01267
G1 X65.901 Y142.657 E0.01267
G1 X65.869 Y142.212 E0.01398
G1 X65.869 Y95.995 E1.44910
G1 X65.901 Y95.551 E0.01398
G1 X65.987 Y95.156 E0.01267
G1 X66.128 Y94.777 E0.01267
G1 X66.322 Y94.422 E0.01267
G1 X66.564 Y94.099 E0.01267
G1 X66.849 Y93.814 E0.01262
G1 X67.184 Y93.565 E0.01311
G1 X67.528 Y93.377 E0.01228
G1 X67.907 Y93.236 E0.01267
G1 X68.302 Y93.150 E0.01267
G1 X68.746 Y93.118 E0.01398
G1 X85.019 Y93.118 E0.51022
G1 X85.019 Y90.779 E0.07334
G1 X85.084 Y90.857 E0.00318
G1 X85.654 Y91.251 E0.02174
G1 X86.209 Y91.471 E0.01870
G1 X86.855 Y91.552 E0.02042
G1 X87.501 Y91.471 E0.02042
G1 X88.107 Y91.231 E0.02042
G1 X88.634 Y90.848 E0.02042
G1 X88.691 Y90.779 E0.00281
G1 X88.691 Y93.058 E0.07146
G1 X89.068 Y92.741 F10800.000
G1 F1200.000
G1 X99.068 Y92.741 E0.31354
G1 X99.068 Y113.778 E0.65960
G1 X98.068 Y114.778 E0.04434
G1 X98.068 Y123.430 E0.27128
G1 X99.068 Y124.430 E0.04434
G1 X99.068 Y145.467 E0.65960
G1 X89.068 Y145.467 E0.31354
G1 X89.068 Y149.377 E0.12259
G1 X89.033 Y148.831 E0.01714
G1 X88.835 Y148.267 E0.01875
G1 X88.564 Y147.840 E0.01586
G1 X88.159 Y147.459 E0.01744
G1 X87.672 Y147.191 E0.01743
G1 X87.133 Y147.053 E0.01743
G1 X86.577 Y147.053 E0.01744
G1 X86.038 Y147.191 E0.01743
G1 X85.551 Y147.459 E0.01743
G1 X85.146 Y147.840 E0.01744
G1 X84.848 Y148.309 E0.01743
G1 X84.676 Y148.838 E0.01743
G1 X84.642 Y149.377 E0.01692
G1 X84.642 Y145.467 E0.12259
G1 X68.733 Y145.467 E0.49881
G1 X68.248 Y145.432 E0.01525
G1 X67.800 Y145.335 E0.01436
G1 X67.371 Y145.175 E0.01436
G1 X66.969 Y144.955 E0.01436
G1 X66.602 Y144.681 E0.01436
G1 X66.278 Y144.357 E0.01436
G1 X66.004 Y143.990 E0.01436
G1 X65.784 Y143.588 E0.01436
G1 X65.624 Y143.159 E0.01436
G1 X65.527 Y142.711 E0.01436
G1 X65.492 Y142.226 E0.01525
G1 X65.492 Y95.982 E1.44994
M73 P4 R45
G1 X65.527 Y95.497 E0.01525
G1 X65.624 Y95.049 E0.01436
G1 X65.784 Y94.620 E0.01436
G1 X66.004 Y94.218 E0.01436
G1 X66.278 Y93.851 E0.01436
G1 X66.601 Y93.528 E0.01433
G1 X66.980 Y93.246 E0.01481
G1 X67.371 Y93.033 E0.01395
G1 X67.800 Y92.873 E0.01436
G1 X68.248 Y92.776 E0.01436
G1 X68.733 Y92.741 E0.01525
G1 X84.642 Y92.741 E0.49881
G1 X84.642 Y89.107 E0.11394
G1 X84.767 Y89.685 E0.01853
G1 X84.982 Y90.143 E0.01586
G1 X85.341 Y90.576 E0.01766
G1 X85.833 Y90.916 E0.01875
G1 X86.303 Y91.103 E0.01586
G1 X86.855 Y91.172 E0.01743
G1 X87.407 Y91.103 E0.01743
G1 X87.924 Y90.898 E0.01743
G1 X88.373 Y90.571 E0.01743
G1 X88.728 Y90.143 E0.01743
G1 X88.965 Y89.639 E0.01743
G1 X89.068 Y89.099 E0.01726
G1 X89.068 Y92.681 E0.11232
;WIPE_START
G1 F8640.000
G1 X92.359 Y92.701 E-0.76000
;WIPE_END
G1 E-0.04000 F2100.000
G1 Z0.600 F10800.000
G1 X85.019 Y87.141
G1 Z0.200
G1 E0.80000 F2100.000
G1 F1200.000
G1 X85.019 Y87.119 E0.00071
;WIPE_START
G1 F8640.000
G1 X85.019 Y87.119 E0.00000
;WIPE_END
G1 E-0.80000 F2100.000
G1 Z0.600 F10800.000
G1 X88.666 Y87.118
G1 Z0.200
G1 E0.80000 F2100.000
G1 F1200.000
G1 X88.688 Y87.118 E0.00071
G1 X89.068 Y86.741 F10800.000
G1 F1200.000
G1 X89.068 Y89.077 E0.07324
G1 X89.034 Y88.538 E0.01692
G1 X88.862 Y88.009 E0.01743
G1 X88.564 Y87.540 E0.01744
G1 X88.159 Y87.159 E0.01743
G1 X87.672 Y86.891 E0.01744
G1 X87.133 Y86.753 E0.01743
G1 X86.570 Y86.753 E0.01766
G1 X85.994 Y86.916 E0.01875
G1 X85.551 Y87.159 E0.01586
G1 X85.146 Y87.540 E0.01743
G1 X84.848 Y88.009 E0.01743
G1 X84.676 Y88.538 E0.01743
G1 X84.642 Y89.077 E0.01692
G1 X84.642 Y86.741 E0.07324
G1 X89.008 Y86.741 E0.13689
;WIPE_START
G1 F8640.000
G1 X89.068 Y89.077 E-0.53951
G1 X89.034 Y88.538 E-0.12459
G1 X88.906 Y88.143 E-0.09591
;WIPE_END
G1 E-0.04000 F2100.000
G1 Z0.600 F10800.000
G1 X88.271 Y87.782
G1 Z0.200
G1 E0.80000 F2100.000
;TYPE:External perimeter
G1 F1200.000
G1 X88.518 Y88.171 E0.01445
G1 X88.661 Y88.609 E0.01445
G1 X88.690 Y89.069 E0.01445
G1 X88.603 Y89.522 E0.01445
G1 X88.407 Y89.939 E0.01445
G1 X88.113 Y90.294 E0.01445
G1 X87.740 Y90.565 E0.01445
G1 X87.312 Y90.734 E0.01445
G1 X86.855 Y90.792 E0.01445
G1 X86.398 Y90.734 E0.01445
G1 X86.012 Y90.582 E0.01302
G1 X85.598 Y90.296 E0.01576
G1 X85.303 Y89.939 E0.01453
G1 X85.126 Y89.563 E0.01302
G1 X85.020 Y89.072 E0.01576
G1 X85.049 Y88.609 E0.01453
G1 X85.192 Y88.171 E0.01445
G1 X85.438 Y87.782 E0.01445
G1 X85.774 Y87.467 E0.01445
G1 X86.138 Y87.267 E0.01302
G1 X86.622 Y87.130 E0.01576
G1 X87.085 Y87.130 E0.01453
G1 X87.532 Y87.245 E0.01445
G1 X87.935 Y87.467 E0.01445
G1 X88.228 Y87.741 E0.01257
G1 X88.666 Y87.715 F10800.000
;WIPE_START
G1 F8640.000
G1 X88.518 Y88.171 E-0.11987
G1 X88.661 Y88.609 E-0.10640
G1 X88.690 Y89.069 E-0.10640
G1 X88.603 Y89.522 E-0.10640
G1 X88.407 Y89.939 E-0.10640
G1 X88.113 Y90.294 E-0.10640
G1 X87.740 Y90.565 E-0.10640
G1 X87.733 Y90.568 E-0.00175
;WIPE_END
G1 E-0.04000 F2100.000
G1 Z0.600 F10800.000
G1 X87.085 Y147.430
G1 Z0.200
G1 E0.80000 F2100.000
G1 F1200.000
G1 X87.532 Y147.545 E0.01445
G1 X87.935 Y147.767 E0.01445
G1 X88.271 Y148.082 E0.01445
G1 X88.494 Y148.433 E0.01302
G1 X88.660 Y148.907 E0.01576
G1 X88.690 Y149.369 E0.01453
G1 X88.612 Y149.777 E0.01302
G1 X88.409 Y150.237 E0.01576
G1 X88.113 Y150.594 E0.01453
G1 X87.740 Y150.865 E0.01445
G1 X87.312 Y151.034 E0.01445
G1 X86.855 Y151.092 E0.01445
G1 X86.398 Y151.034 E0.01445
G1 X85.969 Y150.865 E0.01445
G1 X85.597 Y150.594 E0.01445
G1 X85.332 Y150.274 E0.01302
G1 X85.107 Y149.824 E0.01576
G1 X85.020 Y149.369 E0.01453
G1 X85.049 Y148.909 E0.01445
G1 X85.192 Y148.471 E0.01445
G1 X85.438 Y148.082 E0.01445
G1 X85.774 Y147.767 E0.01445
G1 X86.178 Y147.545 E0.01445
G1 X86.624 Y147.430 E0.01445
G1 X87.025 Y147.430 E0.01257
G1 X87.327 Y147.112 F10800.000
;WIPE_START
G1 F8640.000
G1 X87.532 Y147.545 E-0.11987
G1 X87.935 Y147.767 E-0.10640
G1 X88.271 Y148.082 E-0.10640
G1 X88.494 Y148.433 E-0.09585
G1 X88.660 Y148.907 E-0.11607
G1 X88.690 Y149.369 E-0.10699
G1 X88.612 Y149.777 E-0.09585
G1 X88.590 Y149.827 E-0.01257
;WIPE_END
G1 E-0.04000 F2100.000
G1 Z0.600 F10800.000
G1 X84.642 Y149.399
G1 Z0.200
G1 E0.80000 F2100.000
;TYPE:Perimeter
G1 F1200.000
G1 X84.746 Y149.946 E0.01749
G1 X85.014 Y150.481 E0.01875
G1 X85.336 Y150.871 E0.01586
G1 X85.786 Y151.198 E0.01743
G1 X86.303 Y151.403 E0.01743
G1 X86.812 Y151.467 E0.01608
G1 X84.642 Y151.467 E0.06804
G1 X84.642 Y149.459 E0.06297
;WIPE_START
G1 F8640.000
G1 X84.746 Y149.946 E-0.11519
G1 X85.014 Y150.481 E-0.13808
G1 X85.336 Y150.871 E-0.11680
G1 X85.786 Y151.198 E-0.12840
G1 X86.303 Y151.403 E-0.12840
G1 X86.812 Y151.467 E-0.11843
G1 X86.748 Y151.467 E-0.01472
;WIPE_END
G1 E-0.04000 F2100.000
G1 Z0.600 F10800.000
G1 X86.898 Y151.467
G1 Z0.200
G1 E0.80000 F2100.000
G1 F1200.000
G1 X87.407 Y151.403 E0.01608
