; generated by PrusaSlicer 2.3.3+win64 on 2022-06-11 at 10:05:35 UTC

; 

; external perimeters extrusion width = 0.60mm
; perimeters extrusion width = 0.50mm
; infill extrusion width = 0.50mm
; solid infill extrusion width = 0.50mm
; top infill extrusion width = 0.45mm
; first layer extrusion width = 0.42mm

M73 P0 R121
M73 Q0 S121
M201 X1000 Y1000 Z200 E5000 ; sets maximum accelerations, mm/sec^2
M203 X200 Y200 Z12 E120 ; sets maximum feedrates, mm/sec
M204 P1250 R1250 T1250 ; sets acceleration (P, T) and retract acceleration (R), mm/sec^2
M205 X8.00 Y8.00 Z0.40 E4.50 ; sets the jerk limits, mm/sec
M205 S0 T0 ; sets the minimum extruding and travel feed rate, mm/sec
M107
;TYPE:Custom
M862.3 P "MK3S" ; printer model check
M862.1 P0.4 ; nozzle diameter check
M115 U3.11.0 ; tell printer latest fw version
G90 ; use absolute coordinates
M83 ; extruder relative mode
M104 S240 ; set extruder temp
M140 S50 ; set bed temp
M190 S50 ; wait for bed temp
M109 S240 ; wait for extruder temp
G28 W ; home all without mesh bed level
G80 ; mesh bed leveling
G1 Y-3.0 F1000.0 ; go outside print area
G92 E0.0
G1 X60.0 E9.0 F1000.0 ; intro line
G1 X100.0 E12.5 F1000.0 ; intro line
G92 E0.0
M221 S95

; Don't change E values below. Excessive value can damage the printer.

M907 E538 ; set extruder motor current
G21 ; set units to millimeters
G90 ; use absolute coordinates
M83 ; use relative distances for extrusion
M900 K0
;LAYER_CHANGE
;Z:0.2
;HEIGHT:0.2
;BEFORE_LAYER_CHANGE
G92 E0.0
;0.2


G1 E-1.20000 F2100.000
G1 Z0.200 F10800.000
;AFTER_LAYER_CHANGE
;0.2
G1 X61.192 Y143.663
G1 E1.20000 F1200.000
M204 S1000
;TYPE:Skirt
;WIDTH:0.42
G1 F1074.044
G1 X61.025 Y142.846 E0.02928
G1 X61.025 Y136.776 E0.21314
G1 X61.590 Y89.657 E1.65480
G1 X61.725 Y89.095 E0.02028
G1 X68.093 Y72.268 E0.63182
M73 P0 R120
G1 X68.551 Y71.387 E0.03488
G1 X69.108 Y70.630 E0.03302
G1 X69.662 Y70.063 E0.02781
G1 X70.616 Y69.345 E0.04193
G1 X71.321 Y68.969 E0.02808
G1 X72.153 Y68.660 E0.03115
G1 X73.023 Y68.469 E0.03128
G1 X73.816 Y68.405 E0.02794
G1 X120.255 Y68.401 E1.63080
G1 X121.157 Y68.465 E0.03174
G1 X164.000 Y74.631 E1.51999
G1 X164.697 Y74.834 E0.02552
G1 X165.331 Y75.181 E0.02538
G1 X165.867 Y75.643 E0.02484
G1 X166.331 Y76.273 E0.02749
G1 X166.679 Y77.132 E0.03253
G1 X166.783 Y77.919 E0.02790
G1 X166.783 Y105.193 E0.95775
G1 X165.594 Y150.185 E1.58055
G1 X165.477 Y150.976 E0.02806
G1 X165.086 Y151.882 E0.03465
G1 X164.602 Y152.492 E0.02737
G1 X163.986 Y152.976 E0.02750
G1 X163.311 Y153.292 E0.02616
G1 X162.406 Y153.470 E0.03240
G1 X123.775 Y155.164 E1.35789
G1 X69.386 Y155.165 E1.90996
G1 X68.758 Y155.076 E0.02227
G1 X68.173 Y154.823 E0.02240
G1 X67.735 Y154.482 E0.01948
G1 X67.387 Y154.050 E0.01948
G1 X61.222 Y143.714 E0.42261
; printing object Body1 id:1 copy 0
G1 E-1.20000 F2100.000
G1 X98.314 Y102.715 F10800.000
M73 Q0 S120
G1 E1.20000 F1200.000
;TYPE:Perimeter
G1 F1074.044
G1 X98.314 Y73.991 E1.00870
G1 X101.889 Y73.991 E0.12551
G1 X101.889 Y102.715 E1.00870
G1 X98.374 Y102.715 E0.12341
G1 X98.692 Y102.338 F10800.000
;TYPE:External perimeter
G1 F1074.044
G1 X98.692 Y74.368 E0.98222
G1 X101.512 Y74.368 E0.09903
G1 X101.512 Y102.338 E0.98222
G1 X98.752 Y102.338 E0.09692
G1 X98.339 Y102.526 F10800.000
G1 E-1.20000 F2100.000
G1 X104.314 Y73.991 F10800.000
G1 E1.20000 F1200.000
;TYPE:Perimeter
G1 F1074.044
G1 X107.889 Y73.991 E0.12551
G1 X107.889 Y102.715 E1.00870
G1 X104.314 Y102.715 E0.12551
G1 X104.314 Y74.051 E1.00659
G1 X104.692 Y74.368 F10800.000
;TYPE:External perimeter
G1 F1074.044
G1 X107.512 Y74.368 E0.09903
G1 X107.512 Y102.338 E0.98222
G1 X104.692 Y102.338 E0.09903
G1 X104.692 Y74.428 E0.98011
G1 X104.678 Y73.968 F10800.000
G1 E-1.20000 F2100.000
G1 X110.314 Y73.991 F10800.000
G1 E1.20000 F1200.000
;TYPE:Perimeter
G1 F1074.044
G1 X113.889 Y73.991 E0.12551
G1 X113.889 Y102.715 E1.00870
G1 X110.314 Y102.715 E0.12551
G1 X110.314 Y74.051 E1.00659
G1 X110.692 Y74.368 F10800.000
;TYPE:External perimeter
G1 F1074.044
G1 X113.512 Y74.368 E0.09903
G1 X113.512 Y102.338 E0.98222
G1 X110.692 Y102.338 E0.09903
G1 X110.692 Y74.428 E0.98011
G1 X110.678 Y73.968 F10800.000
G1 E-1.20000 F2100.000
G1 X116.314 Y73.991 F10800.000
G1 E1.20000 F1200.000
;TYPE:Perimeter
G1 F1074.044
G1 X119.889 Y73.991 E0.12551
G1 X119.889 Y102.715 E1.00870
G1 X116.314 Y102.715 E0.12551
G1 X116.314 Y74.051 E1.00659
G1 X116.692 Y74.368 F10800.000
;TYPE:External perimeter
G1 F1074.044
G1 X119.512 Y74.368 E0.09903
G1 X119.512 Y102.338 E0.98222
G1 X116.692 Y102.338 E0.09903
G1 X116.692 Y74.428 E0.98011
G1 X116.678 Y73.968 F10800.000
G1 E-1.20000 F2100.000
G1 X92.314 Y73.991 F10800.000
G1 E1.20000 F1200.000
;TYPE:Perimeter
G1 F1074.044
G1 X95.889 Y73.991 E0.12551
G1 X95.889 Y102.715 E1.00870
G1 X92.314 Y102.715 E0.12551
G1 X92.314 Y74.051 E1.00659
G1 X92.692 Y74.368 F10800.000
;TYPE:External perimeter
G1 F1074.044
G1 X95.512 Y74.368 E0.09903
G1 X95.512 Y102.338 E0.98222
G1 X92.692 Y102.338 E0.09903
G1 X92.692 Y74.428 E0.98011
G1 X92.678 Y73.968 F10800.000
G1 E-1.20000 F2100.000
G1 X86.314 Y73.991 F10800.000
G1 E1.20000 F1200.000
;TYPE:Perimeter
G1 F1074.044
G1 X89.889 Y73.991 E0.12551
G1 X89.889 Y102.715 E1.00870
G1 X86.314 Y102.715 E0.12551
G1 X86.314 Y74.051 E1.00659
G1 X86.692 Y74.368 F10800.000
;TYPE:External perimeter
G1 F1074.044
G1 X89.512 Y74.368 E0.09903
G1 X89.512 Y102.338 E0.98222
G1 X86.692 Y102.338 E0.09903
G1 X86.692 Y74.428 E0.98011
M73 P1 R119
M73 Q1 S120
G1 X86.678 Y73.968 F10800.000
G1 E-1.20000 F2100.000
G1 X80.314 Y73.991 F10800.000
G1 E1.20000 F1200.000
;TYPE:Perimeter
G1 F1074.044
G1 X83.889 Y73.991 E0.12551
G1 X83.889 Y102.715 E1.00870
G1 X80.314 Y102.715 E0.12551
G1 X80.314 Y74.051 E1.00659
G1 X80.692 Y74.368 F10800.000
;TYPE:External perimeter
G1 F1074.044
G1 X83.512 Y74.368 E0.09903
G1 X83.512 Y102.338 E0.98222
G1 X80.692 Y102.338 E0.09903
G1 X80.692 Y74.428 E0.98011
G1 X80.678 Y73.968 F10800.000
G1 E-1.20000 F2100.000
G1 X74.314 Y73.991 F10800.000
G1 E1.20000 F1200.000
;TYPE:Perimeter
G1 F1074.044
G1 X77.889 Y73.991 E0.12551
G1 X77.889 Y102.715 E1.00870
G1 X74.314 Y102.715 E0.12551
G1 X74.314 Y74.051 E1.00659
G1 X74.692 Y74.368 F10800.000
;TYPE:External perimeter
G1 F1074.044
G1 X77.512 Y74.368 E0.09903
G1 X77.512 Y102.338 E0.98222
G1 X74.692 Y102.338 E0.09903
G1 X74.692 Y74.428 E0.98011
G1 X74.678 Y73.968 F10800.000
G1 E-1.20000 F2100.000
G1 X123.464 Y90.715 F10800.000
M73 Q1 S119
G1 E1.20000 F1200.000
;TYPE:Perimeter
G1 F1074.044
G1 X129.464 Y90.715 E0.21070
G1 X129.464 Y95.141 E0.15542
G1 X127.129 Y95.141 E0.08202
G1 X127.667 Y95.107 E0.01895
G1 X128.196 Y94.935 E0.01953
G1 X128.666 Y94.637 E0.01953
G1 X129.051 Y94.227 E0.01978
G1 X129.327 Y93.696 E0.02100
G1 X129.452 Y93.206 E0.01776
G1 X129.452 Y92.643 E0.01978
G1 X129.290 Y92.067 E0.02100
G1 X129.046 Y91.624 E0.01776
G1 X128.666 Y91.219 E0.01953
G1 X128.196 Y90.921 E0.01953
G1 X127.660 Y90.747 E0.01978
G1 X127.063 Y90.723 E0.02100
G1 X126.566 Y90.818 E0.01776
G1 X126.063 Y91.055 E0.01953
G1 X125.634 Y91.409 E0.01953
G1 X125.308 Y91.859 E0.01953
G1 X125.103 Y92.376 E0.01953
G1 X125.033 Y92.928 E0.01953
G1 X125.103 Y93.480 E0.01953
G1 X125.308 Y93.997 E0.01953
G1 X125.634 Y94.446 E0.01953
G1 X126.068 Y94.805 E0.01978
G1 X126.615 Y95.047 E0.02100
G1 X127.107 Y95.141 E0.01757
G1 X123.464 Y95.141 E0.12791
G1 X123.464 Y105.141 E0.35117
G1 X102.428 Y105.141 E0.73875
G1 X101.428 Y104.141 E0.04966
G1 X92.776 Y104.141 E0.30383
G1 X91.776 Y105.141 E0.04966
G1 X70.739 Y105.141 E0.73875
G1 X70.739 Y95.141 E0.35117
G1 X66.829 Y95.141 E0.13730
G1 X67.374 Y95.107 E0.01920
G1 X67.939 Y94.908 E0.02100
G1 X68.366 Y94.637 E0.01776
G1 X68.746 Y94.232 E0.01953
G1 X69.014 Y93.745 E0.01953
G1 X69.152 Y93.206 E0.01953
G1 X69.152 Y92.650 E0.01953
G1 X69.014 Y92.111 E0.01953
G1 X68.746 Y91.624 E0.01953
G1 X68.366 Y91.219 E0.01953
G1 X67.896 Y90.921 E0.01953
G1 X67.360 Y90.747 E0.01978
G1 X66.763 Y90.723 E0.02100
G1 X66.266 Y90.818 E0.01776
G1 X65.763 Y91.055 E0.01953
G1 X65.334 Y91.409 E0.01953
G1 X65.008 Y91.859 E0.01953
G1 X64.803 Y92.376 E0.01953
G1 X64.739 Y92.885 E0.01801
G1 X64.739 Y90.715 E0.07621
G1 X70.739 Y90.715 E0.21070
G1 X70.739 Y74.806 E0.55867
G1 X70.773 Y74.321 E0.01708
G1 X70.871 Y73.873 E0.01609
G1 X71.031 Y73.444 E0.01609
G1 X71.250 Y73.042 E0.01609
G1 X71.525 Y72.675 E0.01609
G1 X71.849 Y72.351 E0.01609
G1 X72.216 Y72.077 E0.01609
G1 X72.618 Y71.857 E0.01609
G1 X73.047 Y71.697 E0.01609
G1 X73.495 Y71.600 E0.01609
G1 X73.980 Y71.565 E0.01708
G1 X120.245 Y71.567 E1.62468
G1 X120.709 Y71.600 E0.01633
G1 X121.156 Y71.697 E0.01609
G1 X121.585 Y71.857 E0.01609
G1 X121.988 Y72.077 E0.01609
G1 X122.354 Y72.351 E0.01609
G1 X122.677 Y72.674 E0.01605
G1 X122.959 Y73.054 E0.01658
G1 X123.172 Y73.444 E0.01563
G1 X123.332 Y73.873 E0.01609
G1 X123.430 Y74.321 E0.01609
G1 X123.464 Y74.806 E0.01708
G1 X123.464 Y90.655 E0.55657
G1 E-1.20000 F2100.000
G1 X125.641 Y92.042 F10800.000
G1 E1.20000 F1200.000
;TYPE:External perimeter
G1 F1074.044
G1 X125.912 Y91.670 E0.01618
G1 X126.267 Y91.376 E0.01618
G1 X126.684 Y91.180 E0.01618
G1 X127.091 Y91.102 E0.01458
G1 X127.594 Y91.121 E0.01765
G1 X128.034 Y91.265 E0.01627
G1 X128.423 Y91.512 E0.01618
G1 X128.739 Y91.847 E0.01618
G1 X128.939 Y92.211 E0.01458
G1 X129.075 Y92.695 E0.01765
G1 X129.075 Y93.158 E0.01627
G1 X128.972 Y93.560 E0.01458
G1 X128.740 Y94.007 E0.01765
G1 X128.423 Y94.344 E0.01627
G1 X128.034 Y94.591 E0.01618
G1 X127.596 Y94.734 E0.01618
G1 X127.136 Y94.763 E0.01618
G1 X126.728 Y94.685 E0.01458
G1 X126.269 Y94.482 E0.01765
G1 X125.912 Y94.186 E0.01627
G1 X125.641 Y93.814 E0.01618
G1 X125.471 Y93.385 E0.01618
G1 X125.413 Y92.928 E0.01618
G1 X125.471 Y92.471 E0.01618
G1 X125.619 Y92.098 E0.01407
G1 X125.433 Y91.700 F10800.000
G1 E-1.20000 F2100.000
G1 X68.775 Y92.698 F10800.000
G1 E1.20000 F1200.000
G1 F1074.044
G1 X68.775 Y93.158 E0.01618
G1 X68.661 Y93.605 E0.01618
G1 X68.439 Y94.008 E0.01618
G1 X68.123 Y94.344 E0.01618
G1 X67.773 Y94.567 E0.01458
G1 X67.299 Y94.733 E0.01765
G1 X66.836 Y94.763 E0.01627
G1 X66.428 Y94.685 E0.01458
G1 X65.969 Y94.482 E0.01765
G1 X65.612 Y94.186 E0.01627
G1 X65.341 Y93.814 E0.01618
G1 X65.171 Y93.385 E0.01618
G1 X65.113 Y92.928 E0.01618
G1 X65.171 Y92.471 E0.01618
G1 X65.341 Y92.042 E0.01618
G1 X65.612 Y91.670 E0.01618
G1 X65.967 Y91.376 E0.01618
G1 X66.384 Y91.180 E0.01618
G1 X66.791 Y91.102 E0.01458
G1 X67.294 Y91.121 E0.01765
G1 X67.734 Y91.265 E0.01627
G1 X68.123 Y91.512 E0.01618
G1 X68.439 Y91.847 E0.01618
G1 X68.661 Y92.251 E0.01618
G1 X68.760 Y92.639 E0.01407
G1 X69.144 Y92.853 F10800.000
G1 E-1.20000 F2100.000
G1 X66.807 Y95.141 F10800.000
G1 E1.20000 F1200.000
;TYPE:Perimeter
G1 F1074.044
G1 X64.739 Y95.141 E0.07263
G1 X64.739 Y92.971 E0.07621
G1 X64.803 Y93.480 E0.01801
G1 X65.008 Y93.997 E0.01953
G1 X65.334 Y94.446 E0.01953
G1 X65.768 Y94.805 E0.01978
G1 X66.315 Y95.047 E0.02100
G1 X66.748 Y95.130 E0.01546
G1 E-1.20000 F2100.000
G1 X123.842 Y90.338 F10800.000
G1 E1.20000 F1200.000
;TYPE:External perimeter
G1 F1074.044
G1 X129.842 Y90.338 E0.21070
G1 X129.842 Y95.518 E0.18191
G1 X123.842 Y95.518 E0.21070
G1 X123.842 Y105.518 E0.35117
G1 X102.271 Y105.518 E0.75748
G1 X101.271 Y104.518 E0.04966
G1 X92.932 Y104.518 E0.29286
G1 X91.932 Y105.518 E0.04966
G1 X70.362 Y105.518 E0.75748
G1 X70.362 Y95.518 E0.35117
G1 X64.362 Y95.518 E0.21070
G1 X64.362 Y90.338 E0.18191
G1 X70.362 Y90.338 E0.21070
G1 X70.362 Y74.793 E0.54590
G1 X70.399 Y74.267 E0.01850
G1 X70.508 Y73.767 E0.01798
G1 X70.687 Y73.287 E0.01798
G1 X70.932 Y72.838 E0.01798
G1 X71.239 Y72.428 E0.01798
G1 X71.601 Y72.066 E0.01798
G1 X72.011 Y71.759 E0.01798
G1 X72.461 Y71.513 E0.01798
G1 X72.940 Y71.334 E0.01798
G1 X73.441 Y71.226 E0.01798
G1 X73.966 Y71.188 E0.01850
G1 X120.258 Y71.189 E1.62563
G1 X120.762 Y71.226 E0.01775
G1 X121.263 Y71.334 E0.01798
G1 X121.742 Y71.513 E0.01798
G1 X122.192 Y71.759 E0.01798
G1 X122.602 Y72.066 E0.01798
G1 X122.964 Y72.427 E0.01797
G1 X123.277 Y72.850 E0.01848
G1 X123.516 Y73.287 E0.01750
G1 X123.695 Y73.767 E0.01798
G1 X123.804 Y74.267 E0.01798
G1 X123.842 Y74.793 E0.01850
G1 X123.842 Y90.278 E0.54380
G1 X123.842 Y90.738 F10800.000
G1 E-1.20000 F2100.000
G1 X128.885 Y94.569 F10800.000
G1 E1.20000 F1200.000
;TYPE:Solid infill
;WIDTH:0.449476
G1 F996.173
G1 X129.344 Y95.028 E0.02459
G1 E-1.20000 F2100.000
G1 X123.040 Y73.439 F10800.000
G1 E1.20000 F1200.000
;WIDTH:0.42162
G1 F1069.448
G1 X122.164 Y72.562 E0.04373
G1 X121.834 Y72.315 E0.01452
G1 X121.468 Y72.115 E0.01473
G1 X121.024 Y71.958 E0.01660
G1 X123.072 Y74.005 E0.10213
G1 X123.149 Y74.361 E0.01284
G1 X123.169 Y74.638 E0.00979
G1 X120.391 Y71.861 E0.13854
G1 X119.844 Y71.849 E0.01929
G1 X123.182 Y75.187 E0.16645
G1 X123.182 Y75.722 E0.01889
G1 X119.309 Y71.849 E0.19316
G1 X118.773 Y71.849 E0.01889
G1 X123.182 Y76.258 E0.21987
G1 X123.182 Y76.793 E0.01889
G1 X118.238 Y71.849 E0.24659
G1 X117.702 Y71.849 E0.01889
G1 X119.561 Y73.708 E0.09271
G1 X119.025 Y73.708 E0.01889
G1 X117.167 Y71.849 E0.09271
G1 X116.631 Y71.849 E0.01889
G1 X118.490 Y73.708 E0.09271
G1 X117.954 Y73.708 E0.01889
G1 X116.095 Y71.849 E0.09271
G1 X115.560 Y71.849 E0.01889
G1 X117.419 Y73.708 E0.09271
G1 X116.883 Y73.708 E0.01889
G1 X115.024 Y71.849 E0.09272
G1 X114.489 Y71.849 E0.01889
G1 X116.348 Y73.708 E0.09272
G1 X116.032 Y73.708 E0.01114
G1 X116.032 Y73.928 E0.00775
G1 X113.953 Y71.849 E0.10367
G1 X113.418 Y71.849 E0.01889
G1 X116.032 Y74.463 E0.13039
G1 X116.032 Y74.999 E0.01889
G1 X112.882 Y71.849 E0.15710
G1 X112.346 Y71.849 E0.01889
G1 X116.032 Y75.534 E0.18381
G1 X116.032 Y76.070 E0.01889
G1 X114.171 Y74.210 E0.09278
G1 X114.171 Y73.708 E0.01769
G1 X113.670 Y73.708 E0.01769
G1 X111.641 Y71.679 E0.10118
G1 E-1.20000 F2100.000
G1 X114.002 Y74.576 F10800.000
G1 E1.20000 F1200.000
G1 F1069.448
G1 X116.032 Y76.606 E0.10125
G1 X116.032 Y77.141 E0.01889
G1 X114.171 Y75.281 E0.09278
G1 X114.171 Y75.816 E0.01889
G1 X116.032 Y77.677 E0.09278
G1 X116.032 Y78.212 E0.01889
G1 X114.171 Y76.352 E0.09278
G1 X114.171 Y76.888 E0.01889
G1 X116.032 Y78.748 E0.09278
G1 X116.032 Y79.283 E0.01889
G1 X114.171 Y77.423 E0.09278
G1 X114.171 Y77.959 E0.01889
G1 X116.032 Y79.819 E0.09278
G1 X116.032 Y80.354 E0.01889
G1 X114.171 Y78.494 E0.09278
G1 X114.171 Y79.030 E0.01889
G1 X116.032 Y80.890 E0.09278
G1 X116.032 Y81.426 E0.01889
G1 X114.171 Y79.565 E0.09278
G1 X114.171 Y80.101 E0.01889
G1 X116.032 Y81.961 E0.09278
G1 X116.032 Y82.497 E0.01889
G1 X114.171 Y80.636 E0.09278
G1 X114.171 Y81.172 E0.01889
G1 X116.032 Y83.032 E0.09278
G1 X116.032 Y83.568 E0.01889
G1 X114.171 Y81.708 E0.09278
G1 X114.171 Y82.243 E0.01889
G1 X116.032 Y84.103 E0.09278
G1 X116.032 Y84.639 E0.01889
G1 X114.171 Y82.779 E0.09278
G1 X114.171 Y83.314 E0.01889
G1 X116.032 Y85.175 E0.09278
G1 X116.032 Y85.710 E0.01889
G1 X114.171 Y83.850 E0.09278
G1 X114.171 Y84.385 E0.01889
G1 X116.032 Y86.246 E0.09278
G1 X116.032 Y86.781 E0.01889
G1 X114.171 Y84.921 E0.09278
G1 X114.171 Y85.457 E0.01889
G1 X116.032 Y87.317 E0.09278
G1 X116.032 Y87.852 E0.01889
G1 X114.171 Y85.992 E0.09278
G1 X114.171 Y86.528 E0.01889
G1 X116.032 Y88.388 E0.09278
G1 X116.032 Y88.923 E0.01889
G1 X114.171 Y87.063 E0.09278
G1 X114.171 Y87.599 E0.01889
G1 X116.032 Y89.459 E0.09278
G1 X116.032 Y89.995 E0.01889
G1 X114.171 Y88.134 E0.09278
G1 X114.171 Y88.670 E0.01889
G1 X116.032 Y90.530 E0.09278
G1 X116.032 Y91.066 E0.01889
G1 X114.171 Y89.205 E0.09278
G1 X114.171 Y89.741 E0.01889
G1 X116.032 Y91.601 E0.09278
G1 X116.032 Y92.137 E0.01889
G1 X114.171 Y90.277 E0.09278
G1 X114.171 Y90.812 E0.01889
G1 X116.032 Y92.672 E0.09278
G1 X116.032 Y93.208 E0.01889
G1 X114.171 Y91.348 E0.09278
G1 X114.171 Y91.883 E0.01889
G1 X116.032 Y93.744 E0.09278
G1 X116.032 Y94.279 E0.01889
G1 X114.171 Y92.419 E0.09278
G1 X114.171 Y92.954 E0.01889
G1 X116.032 Y94.815 E0.09278
G1 X116.032 Y95.350 E0.01889
G1 X114.171 Y93.490 E0.09278
G1 X114.171 Y94.026 E0.01889
G1 X116.032 Y95.886 E0.09278
G1 X116.032 Y96.421 E0.01889
G1 X114.171 Y94.561 E0.09278
G1 X114.171 Y95.097 E0.01889
G1 X116.032 Y96.957 E0.09278
G1 X116.032 Y97.492 E0.01889
G1 X114.171 Y95.632 E0.09278
G1 X114.171 Y96.168 E0.01889
G1 X116.032 Y98.028 E0.09278
