; generated by PrusaSlicer 2.3.3+win64 on 2022-06-16 at 09:00:58 UTC

; 

; external perimeters extrusion width = 0.60mm
; perimeters extrusion width = 0.50mm
; infill extrusion width = 0.50mm
; solid infill extrusion width = 0.50mm
; top infill extrusion width = 0.45mm
; first layer extrusion width = 0.42mm

M73 P0 R26
M73 Q0 S26
M201 X1000 Y1000 Z200 E5000 ; sets maximum accelerations, mm/sec^2
M203 X200 Y200 Z12 E120 ; sets maximum feedrates, mm/sec
M204 P1250 R1250 T1250 ; sets acceleration (P, T) and retract acceleration (R), mm/sec^2
M205 X8.00 Y8.00 Z0.40 E4.50 ; sets the jerk limits, mm/sec
M205 S0 T0 ; sets the minimum extruding and travel feed rate, mm/sec
M107
;TYPE:Custom
M862.3 P "MK3S" ; printer model check
M862.1 P0.4 ; nozzle diameter check
M115 U3.11.0 ; tell printer latest fw version
G90 ; use absolute coordinates
M83 ; extruder relative mode
M104 S215 ; set extruder temp
M140 S60 ; set bed temp
M190 S60 ; wait for bed temp
M109 S215 ; wait for extruder temp
G28 W ; home all without mesh bed level
G80 ; mesh bed leveling
G1 Y-3.0 F1000.0 ; go outside print area
G92 E0.0
G1 X60.0 E9.0 F1000.0 ; intro line
G1 X100.0 E12.5 F1000.0 ; intro line
G92 E0.0
M221 S95

; Don't change E values below. Excessive value can damage the printer.

M907 E538 ; set extruder motor current
G21 ; set units to millimeters
G90 ; use absolute coordinates
M83 ; use relative distances for extrusion
M900 K0.05 ; Filament gcode LA 1.5
M900 K30 ; Filament gcode LA 1.0
;LAYER_CHANGE
;Z:0.2
;HEIGHT:0.2
;BEFORE_LAYER_CHANGE
G92 E0.0
;0.2


G1 E-0.80000 F2100.000
G1 Z0.400 F10800.000
;AFTER_LAYER_CHANGE
;0.2
G1 X88.913 Y92.412
G1 Z0.200
G1 E0.80000 F2100.000
M204 S1000
;TYPE:Skirt
;WIDTH:0.42
G1 F1200.000
G1 X88.767 Y91.637 E0.02473
G1 X88.771 Y85.445 E0.19413
G1 X88.916 Y84.762 E0.02190
G1 X95.324 Y67.835 E0.56750
G1 X95.770 Y67.007 E0.02949
G1 X96.301 Y66.291 E0.02793
G1 X96.943 Y65.642 E0.02865
G1 X97.560 Y65.170 E0.02435
G1 X98.455 Y64.658 E0.03233
G1 X99.305 Y64.334 E0.02853
G1 X100.219 Y64.130 E0.02936
G1 X101.092 Y64.063 E0.02746
G1 X147.448 Y64.063 E1.45344
G1 X148.346 Y64.127 E0.02822
G1 X149.217 Y64.314 E0.02793
G1 X150.067 Y64.627 E0.02841
G1 X150.766 Y65.000 E0.02483
G1 X151.739 Y65.730 E0.03815
G1 X152.294 Y66.300 E0.02495
G1 X152.863 Y67.081 E0.03031
G1 X153.303 Y67.929 E0.02995
G1 X159.670 Y84.756 E0.56409
G1 X159.799 Y85.268 E0.01657
G1 X159.821 Y91.636 E0.19965
G1 X159.666 Y92.436 E0.02555
G1 X153.468 Y102.836 E0.37959
G1 X152.865 Y103.495 E0.02802
G1 X152.200 Y103.843 E0.02355
G1 X151.463 Y103.967 E0.02343
G1 X97.125 Y103.967 E1.70374
M73 P1 R26
M73 Q1 S26
G1 X96.586 Y103.900 E0.01704
G1 X96.072 Y103.711 E0.01716
G1 X95.615 Y103.410 E0.01716
G1 X95.239 Y103.012 E0.01716
G1 X88.944 Y92.463 E0.38518
; printing object IMU_mount id:0 copy 0
;WIPE_START
G1 F8640.000
G1 X88.767 Y91.637 E-0.19516
G1 X88.769 Y89.190 E-0.56484
;WIPE_END
G1 E-0.04000 F2100.000
G1 Z0.600 F10800.000
G1 X137.507 Y69.653
G1 Z0.200
G1 E0.80000 F2100.000
;TYPE:Perimeter
G1 F1200.000
G1 X141.081 Y69.653 E0.11207
G1 X141.081 Y98.377 E0.90063
G1 X137.507 Y98.377 E0.11207
G1 X137.507 Y69.713 E0.89874
G1 X137.884 Y70.030 F10800.000
;TYPE:External perimeter
G1 F1200.000
G1 X140.704 Y70.030 E0.08842
G1 X140.704 Y98.000 E0.87698
G1 X137.884 Y98.000 E0.08842
G1 X137.884 Y70.090 E0.87510
M73 P1 R25
G1 X137.871 Y69.630 F10800.000
;WIPE_START
G1 F8640.000
G1 X140.704 Y70.030 E-0.65129
G1 X140.704 Y70.501 E-0.10871
;WIPE_END
G1 E-0.04000 F2100.000
G1 Z0.600 F10800.000
G1 X143.507 Y69.653
G1 Z0.200
G1 E0.80000 F2100.000
;TYPE:Perimeter
G1 F1200.000
G1 X147.081 Y69.653 E0.11207
G1 X147.081 Y98.377 E0.90063
G1 X143.507 Y98.377 E0.11207
G1 X143.507 Y69.713 E0.89874
G1 X143.884 Y70.030 F10800.000
;TYPE:External perimeter
G1 F1200.000
G1 X146.704 Y70.030 E0.08842
G1 X146.704 Y98.000 E0.87698
G1 X143.884 Y98.000 E0.08842
G1 X143.884 Y70.090 E0.87510
M73 Q2 S26
G1 X143.871 Y69.630 F10800.000
;WIPE_START
G1 F8640.000
G1 X146.704 Y70.030 E-0.65129
G1 X146.704 Y70.501 E-0.10871
;WIPE_END
G1 E-0.04000 F2100.000
G1 Z0.600 F10800.000
M73 P2 R25
G1 X107.507 Y69.653
G1 Z0.200
G1 E0.80000 F2100.000
;TYPE:Perimeter
G1 F1200.000
G1 X111.081 Y69.653 E0.11207
G1 X111.081 Y98.377 E0.90063
M73 Q2 S25
G1 X107.507 Y98.377 E0.11207
G1 X107.507 Y69.713 E0.89874
G1 X107.884 Y70.030 F10800.000
;TYPE:External perimeter
G1 F1200.000
G1 X110.704 Y70.030 E0.08842
G1 X110.704 Y98.000 E0.87698
G1 X107.884 Y98.000 E0.08842
G1 X107.884 Y70.090 E0.87510
G1 X107.871 Y69.630 F10800.000
;WIPE_START
G1 F8640.000
G1 X110.704 Y70.030 E-0.65129
G1 X110.704 Y70.501 E-0.10871
;WIPE_END
G1 E-0.04000 F2100.000
G1 Z0.600 F10800.000
G1 X101.507 Y69.653
G1 Z0.200
G1 E0.80000 F2100.000
;TYPE:Perimeter
G1 F1200.000
G1 X105.081 Y69.653 E0.11207
G1 X105.081 Y98.377 E0.90063
G1 X101.507 Y98.377 E0.11207
G1 X101.507 Y69.713 E0.89874
G1 X101.884 Y70.030 F10800.000
;TYPE:External perimeter
G1 F1200.000
G1 X104.704 Y70.030 E0.08842
G1 X104.704 Y98.000 E0.87698
G1 X101.884 Y98.000 E0.08842
G1 X101.884 Y70.090 E0.87510
G1 X101.871 Y69.630 F10800.000
;WIPE_START
G1 F8640.000
G1 X104.704 Y70.030 E-0.65129
G1 X104.704 Y70.501 E-0.10871
;WIPE_END
G1 E-0.04000 F2100.000
G1 Z0.600 F10800.000
G1 X150.657 Y86.377
G1 Z0.200
G1 E0.80000 F2100.000
;TYPE:Perimeter
G1 F1200.000
G1 X156.657 Y86.377 E0.18813
G1 X156.657 Y90.803 E0.13877
M73 Q3 S25
G1 X154.321 Y90.803 E0.07324
G1 X154.860 Y90.769 E0.01692
G1 X155.389 Y90.597 E0.01743
G1 X155.858 Y90.299 E0.01744
G1 X156.244 Y89.889 E0.01766
G1 X156.519 Y89.358 E0.01875
G1 X156.645 Y88.868 E0.01586
G1 X156.645 Y88.305 E0.01766
G1 X156.482 Y87.729 E0.01875
G1 X156.239 Y87.286 E0.01586
M73 P3 R25
G1 X155.858 Y86.881 E0.01743
G1 X155.389 Y86.583 E0.01743
G1 X154.853 Y86.409 E0.01766
G1 X154.255 Y86.385 E0.01875
G1 X153.759 Y86.480 E0.01586
G1 X153.255 Y86.717 E0.01744
G1 X152.827 Y87.071 E0.01743
G1 X152.500 Y87.521 E0.01744
G1 X152.295 Y88.038 E0.01743
G1 X152.226 Y88.590 E0.01743
G1 X152.295 Y89.142 E0.01743
G1 X152.500 Y89.659 E0.01743
G1 X152.827 Y90.108 E0.01743
G1 X153.261 Y90.467 E0.01766
G1 X153.808 Y90.709 E0.01875
G1 X154.299 Y90.803 E0.01569
G1 X150.657 Y90.803 E0.11420
G1 X150.657 Y100.803 E0.31354
G1 X133.620 Y100.803 E0.53418
G1 X128.620 Y95.803 E0.22171
G1 X119.968 Y95.803 E0.27128
G1 X114.968 Y100.803 E0.22171
G1 X97.931 Y100.803 E0.53418
G1 X97.931 Y90.803 E0.31354
G1 X94.021 Y90.803 E0.12259
G1 X94.567 Y90.768 E0.01714
G1 X95.131 Y90.570 E0.01875
G1 X95.558 Y90.299 E0.01586
G1 X95.939 Y89.894 E0.01744
G1 X96.207 Y89.406 E0.01743
G1 X96.345 Y88.868 E0.01743
G1 X96.345 Y88.312 E0.01744
G1 X96.207 Y87.773 E0.01743
G1 X95.939 Y87.286 E0.01743
G1 X95.558 Y86.881 E0.01744
G1 X95.089 Y86.583 E0.01743
G1 X94.553 Y86.409 E0.01766
G1 X93.955 Y86.385 E0.01875
G1 X93.459 Y86.480 E0.01586
G1 X92.955 Y86.717 E0.01744
G1 X92.527 Y87.071 E0.01743
G1 X92.200 Y87.521 E0.01743
G1 X91.995 Y88.038 E0.01743
G1 X91.931 Y88.547 E0.01608
G1 X91.931 Y86.377 E0.06804
G1 X97.931 Y86.377 E0.18813
G1 X97.931 Y70.468 E0.49881
G1 X97.966 Y69.983 E0.01525
G1 X98.063 Y69.535 E0.01436
G1 X98.223 Y69.106 E0.01436
G1 X98.443 Y68.704 E0.01436
G1 X98.717 Y68.337 E0.01436
G1 X99.041 Y68.013 E0.01436
G1 X99.408 Y67.739 E0.01436
G1 X99.810 Y67.519 E0.01436
G1 X100.239 Y67.359 E0.01436
G1 X100.687 Y67.262 E0.01436
G1 X101.172 Y67.227 E0.01525
G1 X147.437 Y67.228 E1.45061
G1 X147.901 Y67.262 E0.01458
G1 X148.349 Y67.359 E0.01436
G1 X148.778 Y67.519 E0.01436
G1 X149.180 Y67.739 E0.01436
G1 X149.547 Y68.013 E0.01436
G1 X149.870 Y68.336 E0.01433
G1 X150.152 Y68.715 E0.01481
G1 X150.365 Y69.106 E0.01395
G1 X150.525 Y69.535 E0.01436
G1 X150.622 Y69.983 E0.01436
G1 X150.657 Y70.468 E0.01525
G1 X150.657 Y86.317 E0.49693
;WIPE_START
G1 F8640.000
G1 X153.948 Y86.350 E-0.76000
;WIPE_END
G1 E-0.04000 F2100.000
G1 Z0.600 F10800.000
G1 X152.833 Y87.704
G1 Z0.200
G1 E0.80000 F2100.000
;TYPE:External perimeter
G1 F1200.000
G1 X153.104 Y87.331 E0.01445
G1 X153.459 Y87.038 E0.01445
G1 X153.876 Y86.842 E0.01445
G1 X154.284 Y86.764 E0.01302
G1 X154.786 Y86.783 E0.01576
G1 X155.227 Y86.927 E0.01453
G1 X155.616 Y87.173 E0.01445
G1 X155.931 Y87.509 E0.01445
G1 X156.131 Y87.873 E0.01302
G1 X156.268 Y88.357 E0.01576
G1 X156.268 Y88.820 E0.01453
G1 X156.165 Y89.222 E0.01302
G1 X155.933 Y89.669 E0.01576
G1 X155.616 Y90.006 E0.01453
G1 X155.227 Y90.253 E0.01445
G1 X154.788 Y90.396 E0.01445
G1 X154.329 Y90.424 E0.01445
G1 X153.921 Y90.347 E0.01302
G1 X153.461 Y90.144 E0.01576
G1 X153.104 Y89.848 E0.01453
G1 X152.833 Y89.475 E0.01445
G1 X152.664 Y89.047 E0.01445
G1 X152.606 Y88.590 E0.01445
G1 X152.664 Y88.133 E0.01445
G1 X152.811 Y87.760 E0.01257
G1 X152.626 Y87.362 F10800.000
;WIPE_START
G1 F8640.000
G1 X153.104 Y87.331 E-0.11987
G1 X153.459 Y87.038 E-0.10640
G1 X153.876 Y86.842 E-0.10640
G1 X154.284 Y86.764 E-0.09585
G1 X154.786 Y86.783 E-0.11607
G1 X155.227 Y86.927 E-0.10699
G1 X155.616 Y87.173 E-0.10640
G1 X155.622 Y87.180 E-0.00203
;WIPE_END
G1 E-0.04000 F2100.000
G1 Z0.600 F10800.000
G1 X95.968 Y88.359
G1 Z0.200
G1 E0.80000 F2100.000
G1 F1200.000
G1 X95.968 Y88.820 E0.01445
G1 X95.853 Y89.267 E0.01445
G1 X95.631 Y89.670 E0.01445
G1 X95.316 Y90.006 E0.01445
G1 X94.965 Y90.229 E0.01302
G1 X94.491 Y90.395 E0.01576
G1 X94.029 Y90.424 E0.01453
G1 X93.621 Y90.347 E0.01302
G1 X93.161 Y90.144 E0.01576
G1 X92.804 Y89.848 E0.01453
G1 X92.533 Y89.475 E0.01445
G1 X92.364 Y89.047 E0.01445
G1 X92.306 Y88.590 E0.01445
G1 X92.364 Y88.133 E0.01445
G1 X92.533 Y87.704 E0.01445
G1 X92.804 Y87.331 E0.01445
G1 X93.159 Y87.038 E0.01445
G1 X93.576 Y86.842 E0.01445
G1 X93.984 Y86.764 E0.01302
G1 X94.486 Y86.783 E0.01576
G1 X94.927 Y86.927 E0.01453
G1 X95.316 Y87.173 E0.01445
G1 X95.631 Y87.509 E0.01445
G1 X95.853 Y87.913 E0.01445
G1 X95.953 Y88.301 E0.01257
G1 X96.337 Y88.514 F10800.000
;WIPE_START
G1 F8640.000
G1 X95.968 Y88.820 E-0.11987
G1 X95.853 Y89.267 E-0.10640
G1 X95.631 Y89.670 E-0.10640
G1 X95.316 Y90.006 E-0.10640
G1 X94.965 Y90.229 E-0.09585
G1 X94.491 Y90.395 E-0.11607
G1 X94.029 Y90.424 E-0.10699
G1 X94.020 Y90.423 E-0.00203
;WIPE_END
G1 E-0.04000 F2100.000
G1 Z0.600 F10800.000
G1 X93.999 Y90.803
G1 Z0.200
G1 E0.80000 F2100.000
;TYPE:Perimeter
G1 F1200.000
G1 X91.931 Y90.803 E0.06485
G1 X91.931 Y88.633 E0.06804
G1 X91.995 Y89.142 E0.01608
G1 X92.200 Y89.659 E0.01743
G1 X92.527 Y90.108 E0.01743
G1 X92.961 Y90.467 E0.01766
G1 X93.508 Y90.709 E0.01875
G1 X93.940 Y90.792 E0.01381
;WIPE_START
G1 F8640.000
G1 X91.931 Y90.803 E-0.46395
G1 X91.931 Y89.521 E-0.29605
;WIPE_END
G1 E-0.04000 F2100.000
G1 Z0.600 F10800.000
G1 X151.034 Y86.000
G1 Z0.200
G1 E0.80000 F2100.000
;TYPE:External perimeter
G1 F1200.000
G1 X157.034 Y86.000 E0.18813
G1 X157.034 Y91.180 E0.16242
G1 X151.034 Y91.180 E0.18813
M73 Q4 S25
G1 X151.034 Y101.180 E0.31354
G1 X133.464 Y101.180 E0.55090
M73 P4 R25
G1 X128.464 Y96.180 E0.22171
G1 X120.124 Y96.180 E0.26148
G1 X115.124 Y101.180 E0.22171
G1 X97.554 Y101.180 E0.55090
G1 X97.554 Y91.180 E0.31354
G1 X91.554 Y91.180 E0.18813
G1 X91.554 Y86.000 E0.16242
G1 X97.554 Y86.000 E0.18813
G1 X97.554 Y70.454 E0.48741
G1 X97.592 Y69.929 E0.01652
G1 X97.700 Y69.429 E0.01606
G1 X97.879 Y68.949 E0.01606
G1 X98.125 Y68.500 E0.01606
G1 X98.432 Y68.090 E0.01606
G1 X98.794 Y67.728 E0.01606
G1 X99.204 Y67.421 E0.01606
G1 X99.653 Y67.175 E0.01606
G1 X100.133 Y66.996 E0.01606
G1 X100.633 Y66.887 E0.01606
G1 X101.159 Y66.850 E0.01652
G1 X147.451 Y66.851 E1.45145
G1 X147.955 Y66.887 E0.01585
G1 X148.455 Y66.996 E0.01606
G1 X148.935 Y67.175 E0.01606
G1 X149.384 Y67.421 E0.01606
G1 X149.794 Y67.728 E0.01606
G1 X150.156 Y68.089 E0.01604
G1 X150.470 Y68.512 E0.01650
G1 X150.709 Y68.949 E0.01562
G1 X150.888 Y69.429 E0.01606
G1 X150.996 Y69.929 E0.01606
G1 X151.034 Y70.454 E0.01652
G1 X151.034 Y85.940 E0.48553
G1 X151.034 Y86.400 F10800.000
;WIPE_START
G1 F8640.000
G1 X154.325 Y85.973 E-0.76000
;WIPE_END
G1 E-0.04000 F2100.000
G1 Z0.600 F10800.000
G1 X156.078 Y90.230
G1 Z0.200
G1 E0.80000 F2100.000
;TYPE:Solid infill
;WIDTH:0.449476
G1 F1200.000
G1 X156.537 Y90.690 E0.02195
;WIPE_START
G1 F8640.000
G1 X156.078 Y90.230 E-0.14994
;WIPE_END
G1 E-0.65006 F2100.000
G1 Z0.600 F10800.000
G1 X150.233 Y69.101
G1 Z0.200
G1 E0.80000 F2100.000
;WIDTH:0.42162
G1 F1200.000
G1 X149.356 Y68.224 E0.03904
G1 X149.027 Y67.977 E0.01296
G1 X148.660 Y67.777 E0.01315
G1 X148.216 Y67.620 E0.01482
G1 X150.264 Y69.667 E0.09119
G1 X150.342 Y70.023 E0.01147
G1 X150.361 Y70.300 E0.00874
G1 X147.584 Y67.522 E0.12370
G1 X147.037 Y67.511 E0.01722
G1 X150.374 Y70.848 E0.14861
G1 X150.374 Y71.384 E0.01686
G1 X146.501 Y67.511 E0.17246
G1 X145.966 Y67.511 E0.01686
G1 X150.374 Y71.920 E0.19632
G1 X150.374 Y72.455 E0.01686
G1 X145.430 Y67.511 E0.22017
G1 X144.895 Y67.511 E0.01686
G1 X146.753 Y69.370 E0.08278
G1 X146.218 Y69.370 E0.01686
G1 X144.359 Y67.511 E0.08278
G1 X143.823 Y67.511 E0.01686
G1 X145.682 Y69.370 E0.08278
G1 X145.147 Y69.370 E0.01686
G1 X143.288 Y67.511 E0.08278
G1 X142.752 Y67.511 E0.01686
G1 X144.611 Y69.370 E0.08278
G1 X144.076 Y69.370 E0.01686
G1 X142.217 Y67.511 E0.08278
G1 X141.681 Y67.511 E0.01686
G1 X143.540 Y69.370 E0.08278
G1 X143.224 Y69.370 E0.00995
G1 X143.224 Y69.590 E0.00692
G1 X141.146 Y67.511 E0.09257
G1 X140.610 Y67.511 E0.01686
G1 X143.224 Y70.125 E0.11642
G1 X143.224 Y70.661 E0.01686
G1 X140.074 Y67.511 E0.14027
G1 X139.539 Y67.511 E0.01686
G1 X143.224 Y71.196 E0.16412
G1 X143.224 Y71.732 E0.01686
G1 X141.364 Y69.872 E0.08284
G1 X141.364 Y69.370 E0.01580
G1 X140.862 Y69.370 E0.01580
G1 X139.003 Y67.511 E0.08279
G1 X138.468 Y67.511 E0.01686
G1 X140.327 Y69.370 E0.08279
G1 X139.791 Y69.370 E0.01686
G1 X137.932 Y67.511 E0.08279
G1 X137.396 Y67.511 E0.01686
G1 X139.256 Y69.370 E0.08279
G1 X138.720 Y69.370 E0.01686
G1 X136.861 Y67.511 E0.08279
G1 X136.325 Y67.511 E0.01686
G1 X138.184 Y69.370 E0.08279
M73 Q5 S25
G1 X137.649 Y69.370 E0.01686
G1 X135.790 Y67.511 E0.08279
G1 X135.254 Y67.511 E0.01686
G1 X137.224 Y69.481 E0.08773
G1 X137.224 Y70.016 E0.01686
G1 X134.719 Y67.511 E0.11158
G1 X134.183 Y67.511 E0.01686
G1 X137.224 Y70.552 E0.13543
M73 P5 R25
G1 X137.224 Y71.088 E0.01686
G1 X133.647 Y67.511 E0.15928
G1 X133.112 Y67.511 E0.01686
G1 X137.224 Y71.623 E0.18313
G1 X137.224 Y72.159 E0.01686
G1 X132.576 Y67.511 E0.20698
G1 X132.041 Y67.511 E0.01686
G1 X137.224 Y72.694 E0.23083
G1 X137.224 Y73.230 E0.01686
G1 X131.505 Y67.511 E0.25468
G1 X130.969 Y67.511 E0.01686
G1 X137.224 Y73.765 E0.27853
G1 X137.224 Y74.301 E0.01686
G1 X130.434 Y67.511 E0.30238
G1 X129.898 Y67.511 E0.01686
G1 X137.224 Y74.836 E0.32623
G1 X137.224 Y75.372 E0.01686
G1 X129.363 Y67.511 E0.35008
G1 X128.827 Y67.511 E0.01686
G1 X137.224 Y75.908 E0.37394
G1 X137.224 Y76.443 E0.01686
G1 X128.292 Y67.511 E0.39779
G1 X127.756 Y67.511 E0.01686
G1 X137.224 Y76.979 E0.42164
M73 P5 R24
G1 X137.224 Y77.514 E0.01686
G1 X127.220 Y67.511 E0.44549
G1 X126.685 Y67.511 E0.01686
G1 X137.224 Y78.050 E0.46934
G1 X137.224 Y78.585 E0.01686
G1 X126.149 Y67.511 E0.49319
G1 X125.614 Y67.511 E0.01686
G1 X137.224 Y79.121 E0.51704
G1 X137.224 Y79.657 E0.01686
G1 X125.078 Y67.511 E0.54089
G1 X124.543 Y67.510 E0.01686
G1 X137.224 Y80.192 E0.56474
G1 X137.224 Y80.728 E0.01686
G1 X124.007 Y67.510 E0.58859
G1 X123.471 Y67.510 E0.01686
G1 X137.224 Y81.263 E0.61244
G1 X137.224 Y81.799 E0.01686
G1 X122.936 Y67.510 E0.63629
G1 X122.400 Y67.510 E0.01686
G1 X137.224 Y82.334 E0.66014
M73 Q6 S24
G1 X137.224 Y82.870 E0.01686
G1 X121.865 Y67.510 E0.68399
M73 P6 R24
G1 X121.329 Y67.510 E0.01686
G1 X137.224 Y83.405 E0.70784
G1 X137.224 Y83.941 E0.01686
G1 X120.793 Y67.510 E0.73169
G1 X120.258 Y67.510 E0.01686
G1 X137.224 Y84.477 E0.75554
G1 X137.224 Y85.012 E0.01686
G1 X119.722 Y67.510 E0.77940
G1 X119.187 Y67.510 E0.01686
G1 X137.224 Y85.548 E0.80325
G1 X137.224 Y86.083 E0.01686
G1 X118.651 Y67.510 E0.82710
G1 X118.116 Y67.510 E0.01686
G1 X137.224 Y86.619 E0.85095
G1 X137.224 Y87.154 E0.01686
G1 X117.580 Y67.510 E0.87480
G1 X117.044 Y67.510 E0.01686
G1 X137.224 Y87.690 E0.89865
G1 X137.224 Y88.226 E0.01686
G1 X116.509 Y67.510 E0.92250
G1 X115.973 Y67.510 E0.01686
G1 X137.224 Y88.761 E0.94635
M73 P7 R24
M73 Q7 S24
