; generated by PrusaSlicer 2.3.3+win64 on 2022-06-15 at 11:03:51 UTC

; 

; external perimeters extrusion width = 0.45mm
; perimeters extrusion width = 0.45mm
; infill extrusion width = 0.45mm
; solid infill extrusion width = 0.45mm
; top infill extrusion width = 0.40mm
; first layer extrusion width = 0.42mm

M73 P0 R35
M73 Q0 S36
M201 X1000 Y1000 Z200 E5000 ; sets maximum accelerations, mm/sec^2
M203 X200 Y200 Z12 E120 ; sets maximum feedrates, mm/sec
M204 P1250 R1250 T1250 ; sets acceleration (P, T) and retract acceleration (R), mm/sec^2
M205 X8.00 Y8.00 Z0.40 E4.50 ; sets the jerk limits, mm/sec
M205 S0 T0 ; sets the minimum extruding and travel feed rate, mm/sec
M107
;TYPE:Custom
M862.3 P "MK3S" ; printer model check
M862.1 P0.4 ; nozzle diameter check
M115 U3.11.0 ; tell printer latest fw version
G90 ; use absolute coordinates
M83 ; extruder relative mode
M104 S215 ; set extruder temp
M140 S60 ; set bed temp
M190 S60 ; wait for bed temp
M109 S215 ; wait for extruder temp
G28 W ; home all without mesh bed level
G80 ; mesh bed leveling
G1 Y-3.0 F1000.0 ; go outside print area
G92 E0.0
G1 X60.0 E9.0 F1000.0 ; intro line
G1 X100.0 E12.5 F1000.0 ; intro line
G92 E0.0
M221 S95

; Don't change E values below. Excessive value can damage the printer.
M907 E430 ; set extruder motor current
G21 ; set units to millimeters
G90 ; use absolute coordinates
M83 ; use relative distances for extrusion
M900 K0.05 ; Filament gcode LA 1.5
M900 K30 ; Filament gcode LA 1.0
;LAYER_CHANGE
;Z:0.2
;HEIGHT:0.2
;BEFORE_LAYER_CHANGE
G92 E0.0
;0.2


M73 Q0 S35
G1 E-0.80000 F2100.000
G1 Z0.400 F10800.000
;AFTER_LAYER_CHANGE
;0.2
G1 X99.840 Y56.767
G1 Z0.200
G1 E0.80000 F2100.000
M204 S1000
;TYPE:Skirt
;WIDTH:0.42
G1 F1200.000
G1 X100.606 Y56.633 E0.02437
G1 X149.333 Y56.632 E1.52781
G1 X150.207 Y56.800 E0.02790
G1 X150.961 Y57.281 E0.02802
G1 X153.197 Y59.539 E0.09967
G1 X153.530 Y60.110 E0.02071
G1 X153.692 Y60.751 E0.02071
G1 X153.706 Y96.536 E1.12204
G1 X153.559 Y97.334 E0.02543
G1 X153.150 Y98.038 E0.02555
G1 X148.800 Y102.377 E0.19264
G1 X148.122 Y102.751 E0.02426
G1 X147.357 Y102.886 E0.02437
G1 X102.428 Y102.878 E1.40871
G1 X101.706 Y102.700 E0.02331
G1 X101.074 Y102.307 E0.02331
G1 X96.761 Y97.980 E0.19157
G1 X96.388 Y97.302 E0.02426
G1 X96.253 Y96.541 E0.02426
G1 X96.256 Y60.869 E1.11847
G1 X96.405 Y60.171 E0.02237
G1 X96.754 Y59.549 E0.02237
G1 X99.159 Y57.142 E0.10669
G1 X99.788 Y56.796 E0.02249
; printing object Body1 id:0 copy 0
;WIPE_START
G1 F8640.000
G1 X100.606 Y56.633 E-0.19266
G1 X103.063 Y56.633 E-0.56734
;WIPE_END
G1 E-0.04000 F2100.000
G1 Z0.600 F10800.000
G1 X131.264 Y84.202
G1 Z0.200
G1 E0.80000 F2100.000
;TYPE:External perimeter
G1 F1200.000
G1 X131.903 Y83.585 E0.02787
G1 X132.602 Y83.034 E0.02787
G1 X133.352 Y82.557 E0.02787
G1 X134.146 Y82.157 E0.02787
G1 X134.976 Y81.839 E0.02787
G1 X135.833 Y81.606 E0.02787
G1 X136.709 Y81.460 E0.02784
G1 X137.418 Y81.407 E0.02230
G1 X138.306 Y81.420 E0.02783
G1 X139.189 Y81.522 E0.02787
G1 X140.057 Y81.712 E0.02787
G1 X140.902 Y81.988 E0.02787
G1 X141.715 Y82.347 E0.02787
G1 X142.488 Y82.786 E0.02787
G1 X143.213 Y83.301 E0.02787
G1 X143.883 Y83.885 E0.02787
G1 X144.491 Y84.534 E0.02787
G1 X145.031 Y85.240 E0.02787
G1 X145.497 Y85.997 E0.02787
G1 X145.885 Y86.797 E0.02787
G1 X146.191 Y87.632 E0.02787
G1 X146.412 Y88.493 E0.02788
G1 X146.545 Y89.372 E0.02787
G1 X146.555 Y89.558 E0.00584
G1 X146.590 Y90.260 E0.02203
G1 X146.545 Y91.147 E0.02787
G1 X146.412 Y92.026 E0.02788
G1 X146.191 Y92.887 E0.02788
G1 X145.885 Y93.722 E0.02787
G1 X145.497 Y94.522 E0.02787
G1 X145.031 Y95.279 E0.02787
G1 X144.491 Y95.985 E0.02787
G1 X143.883 Y96.634 E0.02787
G1 X143.213 Y97.218 E0.02787
G1 X142.488 Y97.733 E0.02787
G1 X141.715 Y98.172 E0.02787
G1 X140.902 Y98.531 E0.02787
G1 X140.057 Y98.807 E0.02787
G1 X139.189 Y98.997 E0.02787
G1 X138.307 Y99.099 E0.02784
G1 X137.596 Y99.117 E0.02230
G1 X136.710 Y99.060 E0.02783
G1 X135.833 Y98.913 E0.02787
G1 X134.976 Y98.680 E0.02787
G1 X134.146 Y98.362 E0.02787
G1 X133.351 Y97.962 E0.02789
G1 X132.601 Y97.477 E0.02800
G1 X131.924 Y96.899 E0.02792
G1 X131.552 Y96.515 E0.01674
G1 X131.311 Y96.228 E0.01176
G1 X131.058 Y95.767 E0.01651
G1 X130.749 Y95.378 E0.01555
G1 X130.357 Y94.803 E0.02185
G1 X130.110 Y94.382 E0.01530
G1 X129.864 Y94.132 E0.01099
G1 X129.745 Y93.966 E0.00640
G1 X129.569 Y93.648 E0.01140
G1 X129.414 Y93.311 E0.01164
G1 X129.147 Y92.460 E0.02797
G1 X128.969 Y91.588 E0.02789
G1 X128.880 Y90.704 E0.02788
G1 X128.880 Y89.815 E0.02787
G1 X128.969 Y88.931 E0.02788
G1 X129.146 Y88.059 E0.02788
G1 X129.410 Y87.210 E0.02788
G1 X129.758 Y86.392 E0.02787
G1 X130.185 Y85.613 E0.02787
G1 X130.689 Y84.880 E0.02787
G1 X131.225 Y84.248 E0.02599
G1 X131.148 Y83.819 F10800.000
;WIPE_START
G1 F8640.000
G1 X131.903 Y83.585 E-0.21906
G1 X132.602 Y83.034 E-0.20527
G1 X133.352 Y82.557 E-0.20526
G1 X133.856 Y82.303 E-0.13041
;WIPE_END
G1 E-0.04000 F2100.000
G1 Z0.600 F10800.000
G1 X145.067 Y99.489
G1 Z0.200
G1 E0.80000 F2100.000
G1 F1200.000
G1 X144.975 Y99.130 E0.01162
G1 X144.996 Y98.763 E0.01153
G1 X145.128 Y98.420 E0.01153
G1 X145.347 Y98.129 E0.01142
G1 X145.635 Y97.907 E0.01139
G1 X145.970 Y97.768 E0.01137
G1 X146.292 Y97.726 E0.01019
G1 X146.687 Y97.768 E0.01244
G1 X147.024 Y97.910 E0.01148
G1 X147.312 Y98.136 E0.01149
G1 X147.521 Y98.439 E0.01152
G1 X147.631 Y98.790 E0.01155
G1 X147.614 Y99.156 E0.01150
G1 X147.488 Y99.460 E0.01031
G1 X147.350 Y99.712 E0.00901
G1 X147.169 Y99.949 E0.00936
G1 X146.923 Y100.137 E0.00971
G1 X146.637 Y100.256 E0.00971
G1 X146.329 Y100.296 E0.00971
M73 Q1 S35
G1 X146.022 Y100.256 E0.00971
G1 X145.734 Y100.136 E0.00979
G1 X145.283 Y99.774 E0.01814
G1 X145.103 Y99.537 E0.00931
M73 P1 R35
G1 X144.698 Y99.456 F10800.000
;WIPE_START
G1 F8640.000
G1 X144.975 Y99.130 E-0.09848
G1 X144.996 Y98.763 E-0.08488
G1 X145.128 Y98.420 E-0.08493
G1 X145.347 Y98.129 E-0.08413
G1 X145.635 Y97.907 E-0.08388
G1 X145.970 Y97.768 E-0.08375
G1 X146.292 Y97.726 E-0.07503
G1 X146.687 Y97.768 E-0.09161
G1 X146.979 Y97.891 E-0.07330
;WIPE_END
G1 E-0.04000 F2100.000
G1 Z0.600 F10800.000
G1 X104.892 Y99.489
G1 Z0.200
G1 E0.80000 F2100.000
G1 F1200.000
G1 X104.676 Y99.774 E0.01119
G1 X104.225 Y100.136 E0.01814
G1 X103.937 Y100.256 E0.00979
G1 X103.629 Y100.296 E0.00971
G1 X103.322 Y100.256 E0.00971
G1 X103.045 Y100.141 E0.00942
G1 X102.791 Y99.949 E0.00997
G1 X102.609 Y99.712 E0.00939
G1 X102.471 Y99.460 E0.00900
G1 X102.345 Y99.156 E0.01031
G1 X102.327 Y98.790 E0.01150
G1 X102.438 Y98.439 E0.01155
G1 X102.646 Y98.136 E0.01152
G1 X102.934 Y97.910 E0.01149
G1 X103.269 Y97.769 E0.01140
G1 X103.592 Y97.726 E0.01020
G1 X103.986 Y97.767 E0.01243
G1 X104.324 Y97.907 E0.01146
G1 X104.612 Y98.129 E0.01139
G1 X104.831 Y98.420 E0.01142
G1 X104.963 Y98.763 E0.01153
G1 X104.984 Y99.130 E0.01153
G1 X104.907 Y99.431 E0.00974
G1 X105.088 Y99.788 F10800.000
;WIPE_START
G1 F8640.000
G1 X104.676 Y99.774 E-0.09536
G1 X104.225 Y100.136 E-0.13361
G1 X103.937 Y100.256 E-0.07211
G1 X103.629 Y100.296 E-0.07154
G1 X103.322 Y100.256 E-0.07154
G1 X103.045 Y100.141 E-0.06937
G1 X102.791 Y99.949 E-0.07343
G1 X102.609 Y99.712 E-0.06911
G1 X102.471 Y99.460 E-0.06631
G1 X102.408 Y99.309 E-0.03762
;WIPE_END
G1 E-0.04000 F2100.000
G1 Z0.600 F10800.000
G1 X106.403 Y96.935
G1 Z0.200
G1 E0.80000 F2100.000
G1 F1200.000
G1 X105.764 Y96.317 E0.02787
G1 X105.189 Y95.639 E0.02787
G1 X104.685 Y94.906 E0.02787
G1 X104.258 Y94.127 E0.02787
G1 X103.910 Y93.309 E0.02787
G1 X103.646 Y92.460 E0.02787
G1 X103.469 Y91.588 E0.02788
G1 X103.380 Y90.704 E0.02788
G1 X103.380 Y89.815 E0.02787
G1 X103.469 Y88.931 E0.02788
G1 X103.646 Y88.059 E0.02788
G1 X103.910 Y87.210 E0.02787
G1 X104.258 Y86.392 E0.02787
G1 X104.685 Y85.613 E0.02787
G1 X105.189 Y84.880 E0.02787
G1 X105.764 Y84.202 E0.02787
G1 X106.403 Y83.585 E0.02787
G1 X107.102 Y83.034 E0.02787
G1 X107.852 Y82.557 E0.02787
G1 X108.646 Y82.157 E0.02787
G1 X109.476 Y81.839 E0.02787
G1 X110.333 Y81.606 E0.02787
G1 X111.209 Y81.460 E0.02784
G1 X111.918 Y81.407 E0.02230
G1 X112.806 Y81.420 E0.02783
G1 X113.689 Y81.522 E0.02787
G1 X114.557 Y81.712 E0.02787
G1 X115.402 Y81.988 E0.02787
G1 X116.215 Y82.347 E0.02787
G1 X116.988 Y82.786 E0.02787
G1 X117.713 Y83.301 E0.02787
G1 X118.383 Y83.885 E0.02787
G1 X118.991 Y84.534 E0.02787
G1 X119.531 Y85.240 E0.02787
G1 X119.997 Y85.997 E0.02787
G1 X120.385 Y86.797 E0.02787
G1 X120.691 Y87.632 E0.02787
G1 X120.912 Y88.493 E0.02788
G1 X121.045 Y89.372 E0.02787
G1 X121.090 Y90.260 E0.02788
G1 X121.045 Y91.147 E0.02787
G1 X120.912 Y92.026 E0.02788
G1 X120.691 Y92.888 E0.02788
G1 X120.358 Y93.730 E0.02840
G1 X120.147 Y94.052 E0.01207
G1 X119.808 Y94.448 E0.01634
G1 X119.366 Y95.164 E0.02639
G1 X118.857 Y95.835 E0.02641
G1 X118.688 Y96.144 E0.01103
G1 X118.355 Y96.582 E0.01727
G1 X117.706 Y97.197 E0.02801
G1 X117.137 Y97.630 E0.02244
G1 X116.217 Y98.171 E0.03347
G1 X115.402 Y98.531 E0.02792
G1 X114.557 Y98.807 E0.02787
G1 X113.689 Y98.997 E0.02787
G1 X112.807 Y99.099 E0.02784
G1 X112.096 Y99.117 E0.02230
G1 X111.210 Y99.060 E0.02783
G1 X110.333 Y98.913 E0.02787
G1 X109.476 Y98.680 E0.02787
G1 X108.646 Y98.362 E0.02787
G1 X107.852 Y97.962 E0.02787
G1 X107.102 Y97.485 E0.02787
G1 X106.451 Y96.972 E0.02599
G1 X106.025 Y97.064 F10800.000
;WIPE_START
G1 F8640.000
G1 X105.764 Y96.317 E-0.21906
G1 X105.189 Y95.639 E-0.20527
G1 X104.685 Y94.906 E-0.20527
G1 X104.414 Y94.411 E-0.13039
;WIPE_END
G1 E-0.04000 F2100.000
G1 Z0.600 F10800.000
G1 X121.680 Y93.475
G1 Z0.200
G1 E0.80000 F2100.000
;TYPE:Perimeter
G1 F1200.000
G1 X121.772 Y93.225 E0.00837
G1 X122.022 Y92.252 E0.03148
G1 X122.172 Y91.261 E0.03145
G1 X122.223 Y90.260 E0.03143
G1 X122.172 Y89.257 E0.03147
G1 X122.022 Y88.267 E0.03141
G1 X121.773 Y87.296 E0.03144
G1 X121.428 Y86.354 E0.03144
G1 X120.990 Y85.452 E0.03144
G1 X120.585 Y84.795 E0.02421
G1 X121.341 Y85.551 E0.03353
G1 X128.618 Y85.551 E0.22816
G1 X129.378 Y84.791 E0.03370
G1 X129.221 Y85.019 E0.00867
G1 X128.739 Y85.898 E0.03144
G1 X128.347 Y86.821 E0.03144
G1 X128.049 Y87.778 E0.03144
G1 X127.849 Y88.761 E0.03144
G1 X127.749 Y89.758 E0.03144
G1 X127.749 Y90.761 E0.03143
G1 X127.849 Y91.758 E0.03144
G1 X128.050 Y92.743 E0.03151
G1 X128.279 Y93.472 E0.02395
G1 X121.740 Y93.474 E0.20502
;WIPE_START
G1 F8640.000
G1 X121.772 Y93.225 E-0.05796
G1 X122.022 Y92.252 E-0.23186
G1 X122.172 Y91.261 E-0.23158
G1 X122.223 Y90.260 E-0.23144
G1 X122.221 Y90.229 E-0.00715
;WIPE_END
G1 E-0.04000 F2100.000
G1 Z0.600 F10800.000
G1 X132.253 Y81.915
G1 Z0.200
G1 E0.80000 F2100.000
G1 F1200.000
G1 X132.618 Y81.551 E0.01616
G1 X132.835 Y81.551 E0.00680
G1 X132.304 Y81.883 E0.01963
;WIPE_START
G1 F8640.000
G1 X132.618 Y81.551 E-0.10552
G1 X132.835 Y81.551 E-0.05011
G1 X132.304 Y81.883 E-0.14459
;WIPE_END
G1 E-0.49977 F2100.000
G1 Z0.600 F10800.000
G1 X117.681 Y81.891
G1 Z0.200
G1 E0.80000 F2100.000
G1 F1200.000
G1 X117.103 Y81.551 E0.02104
G1 X117.341 Y81.551 E0.00745
G1 X117.639 Y81.849 E0.01322
;WIPE_START
G1 F8640.000
G1 X117.103 Y81.551 E-0.14155
G1 X117.341 Y81.551 E-0.05487
G1 X117.639 Y81.849 E-0.09733
;WIPE_END
G1 E-0.50625 F2100.000
G1 Z0.600 F10800.000
G1 X121.497 Y85.174
G1 Z0.200
G1 E0.80000 F2100.000
G1 F1200.000
G1 X128.462 Y85.174 E0.21836
G1 X132.462 Y81.174 E0.17737
G1 X134.605 Y81.174 E0.06719
G1 X133.840 Y81.467 E0.02566
G1 X132.979 Y81.901 E0.03025
G1 X132.165 Y82.419 E0.03025
G1 X131.407 Y83.016 E0.03025
G1 X130.713 Y83.686 E0.03025
G1 X130.089 Y84.422 E0.03025
G1 X129.543 Y85.217 E0.03025
G1 X129.078 Y86.062 E0.03025
G1 X128.701 Y86.951 E0.03025
G1 X128.415 Y87.872 E0.03025
G1 X128.223 Y88.817 E0.03025
G1 X128.126 Y89.777 E0.03025
G1 X128.126 Y90.742 E0.03024
G1 X128.223 Y91.702 E0.03025
G1 X128.415 Y92.649 E0.03030
G1 X128.709 Y93.583 E0.03069
G1 X128.838 Y93.863 E0.00968
G1 X128.500 Y93.849 E0.01060
G1 X121.968 Y93.846 E0.20480
G1 X121.117 Y93.866 E0.02667
G1 X121.412 Y93.113 E0.02537
G1 X121.652 Y92.177 E0.03028
G1 X121.797 Y91.223 E0.03026
G1 X121.845 Y90.260 E0.03024
G1 X121.797 Y89.295 E0.03027
G1 X121.652 Y88.342 E0.03023
G1 X121.412 Y87.408 E0.03025
G1 X121.080 Y86.502 E0.03025
G1 X120.659 Y85.634 E0.03025
G1 X120.153 Y84.812 E0.03025
G1 X119.567 Y84.046 E0.03025
G1 X118.907 Y83.342 E0.03025
G1 X118.180 Y82.708 E0.03025
G1 X117.394 Y82.149 E0.03025
G1 X116.555 Y81.673 E0.03025
G1 X115.672 Y81.283 E0.03025
G1 X115.339 Y81.174 E0.01100
G1 X117.497 Y81.174 E0.06767
G1 X121.455 Y85.131 E0.17549
;WIPE_START
G1 F8640.000
G1 X124.746 Y85.151 E-0.76000
;WIPE_END
G1 E-0.04000 F2100.000
G1 Z0.600 F10800.000
G1 X105.705 Y81.966
G1 Z0.200
G1 E0.80000 F2100.000
G1 F1200.000
G1 X105.491 Y82.484 E0.01759
G1 X105.149 Y82.929 E0.01759
G1 X104.704 Y83.271 E0.01759
G1 X104.186 Y83.486 E0.01759
G1 X103.629 Y83.559 E0.01759
G1 X103.073 Y83.486 E0.01759
G1 X102.599 Y83.289 E0.01609
G1 X102.118 Y82.940 E0.01865
G1 X101.768 Y82.484 E0.01800
G1 X101.553 Y81.966 E0.01759
G1 X101.480 Y81.410 E0.01759
G1 X101.553 Y80.853 E0.01759
G1 X101.768 Y80.335 E0.01759
G1 X102.110 Y79.890 E0.01759
G1 X102.555 Y79.548 E0.01759
G1 X103.073 Y79.334 E0.01759
G1 X103.582 Y79.267 E0.01609
G1 X104.174 Y79.329 E0.01865
G1 X104.704 Y79.548 E0.01800
G1 X105.149 Y79.890 E0.01759
G1 X105.491 Y80.335 E0.01759
G1 X105.705 Y80.853 E0.01759
G1 X105.779 Y81.410 E0.01759
G1 X105.713 Y81.906 E0.01571
G1 X105.339 Y81.857 F10800.000
G1 F1200.000
G1 X105.161 Y82.294 E0.01479
G1 X104.880 Y82.660 E0.01448
G1 X104.514 Y82.941 E0.01448
G1 X104.087 Y83.118 E0.01448
G1 X103.629 Y83.178 E0.01448
G1 X103.172 Y83.118 E0.01448
G1 X102.784 Y82.958 E0.01314
G1 X102.383 Y82.667 E0.01554
G1 X102.097 Y82.294 E0.01473
G1 X101.921 Y81.867 E0.01448
G1 X101.861 Y81.410 E0.01448
G1 X101.921 Y80.952 E0.01448
G1 X102.097 Y80.525 E0.01448
G1 X102.379 Y80.159 E0.01448
G1 X102.745 Y79.878 E0.01448
G1 X103.172 Y79.701 E0.01448
G1 X103.587 Y79.646 E0.01314
G1 X104.080 Y79.698 E0.01554
G1 X104.514 Y79.878 E0.01473
G1 X104.880 Y80.159 E0.01448
G1 X105.161 Y80.525 E0.01448
G1 X105.338 Y80.952 E0.01448
G1 X105.398 Y81.410 E0.01448
G1 X105.347 Y81.798 E0.01227
G1 X104.971 Y81.769 F10800.000
;TYPE:External perimeter
G1 F1200.000
G1 X104.832 Y82.104 E0.01137
G1 X104.611 Y82.391 E0.01137
G1 X104.324 Y82.612 E0.01137
G1 X103.989 Y82.751 E0.01137
G1 X103.629 Y82.798 E0.01137
G1 X103.270 Y82.751 E0.01137
G1 X102.970 Y82.626 E0.01019
G1 X102.649 Y82.394 E0.01242
G1 X102.427 Y82.104 E0.01145
G1 X102.288 Y81.769 E0.01137
G1 X102.241 Y81.410 E0.01137
G1 X102.288 Y81.050 E0.01137
G1 X102.427 Y80.715 E0.01137
G1 X102.648 Y80.428 E0.01137
G1 X102.935 Y80.207 E0.01137
G1 X103.270 Y80.068 E0.01137
G1 X103.592 Y80.026 E0.01019
G1 X103.986 Y80.067 E0.01242
G1 X104.324 Y80.207 E0.01145
G1 X104.611 Y80.428 E0.01137
G1 X104.832 Y80.715 E0.01137
G1 X104.971 Y81.050 E0.01137
G1 X105.018 Y81.410 E0.01137
G1 X104.978 Y81.709 E0.00948
G1 X105.227 Y82.025 F10800.000
;WIPE_START
G1 F8640.000
G1 X104.832 Y82.104 E-0.09715
G1 X104.611 Y82.391 E-0.08370
G1 X104.324 Y82.612 E-0.08370
G1 X103.989 Y82.751 E-0.08370
G1 X103.629 Y82.798 E-0.08370
G1 X103.270 Y82.751 E-0.08370
G1 X102.970 Y82.626 E-0.07501
G1 X102.649 Y82.394 E-0.09149
G1 X102.444 Y82.126 E-0.07786
;WIPE_END
G1 E-0.04000 F2100.000
G1 Z0.600 F10800.000
G1 X107.088 Y76.648
G1 Z0.200
G1 E0.80000 F2100.000
;TYPE:Perimeter
G1 F1200.000
G1 X110.818 Y80.378 E0.16540
G1 X110.091 Y80.499 E0.02311
G1 X109.124 Y80.763 E0.03144
G1 X108.188 Y81.121 E0.03144
G1 X107.292 Y81.572 E0.03144
G1 X106.446 Y82.111 E0.03144
G1 X105.863 Y82.570 E0.02327
G1 X106.073 Y82.064 E0.01716
G1 X106.159 Y81.410 E0.02070
G1 X106.073 Y80.755 E0.02070
G1 X105.820 Y80.145 E0.02070
G1 X105.418 Y79.621 E0.02070
G1 X104.894 Y79.219 E0.02070
G1 X104.267 Y78.959 E0.02127
G1 X103.577 Y78.887 E0.02176
G1 X102.975 Y78.966 E0.01905
G1 X102.365 Y79.219 E0.02070
G1 X101.841 Y79.621 E0.02070
G1 X101.439 Y80.145 E0.02070
G1 X101.186 Y80.755 E0.02070
G1 X101.100 Y81.410 E0.02070
G1 X101.186 Y82.064 E0.02070
G1 X101.439 Y82.674 E0.02070
G1 X101.852 Y83.213 E0.02127
G1 X102.413 Y83.620 E0.02176
G1 X102.975 Y83.853 E0.01905
G1 X103.629 Y83.939 E0.02070
G1 X104.284 Y83.853 E0.02070
G1 X104.735 Y83.666 E0.01531
